/* XPM */
static char *tile_we[] = {
/* columns rows colors chars-per-pixel */
"128 128 70 1 ",
"  c #3C2F1D",
". c #443622",
"X c #4C3B23",
"o c #513F26",
"O c #554127",
"+ c #584427",
"@ c #544229",
"# c #5A462A",
"$ c #5E492B",
"% c #634D2D",
"& c #67502F",
"* c #68512F",
"= c #644E31",
"- c #665031",
"; c #6C5432",
": c #6F5837",
"> c #6E5738",
", c #705733",
"< c #745A36",
"1 c #795D37",
"2 c #755C39",
"3 c #795E39",
"4 c #7D613B",
"5 c #7F6540",
"6 c #82653D",
"7 c #86683E",
"8 c #896A3E",
"9 c #826640",
"0 c #866941",
"q c #8C6D42",
"w c #8C6F48",
"e c #906F42",
"r c #8E7045",
"t c #8F7148",
"y c #937345",
"u c #997646",
"i c #9B7847",
"p c #957549",
"a c #987749",
"s c #97784C",
"d c #9C7A4B",
"f c #9E7D50",
"g c #A07B47",
"h c #A17E4D",
"j c #A17F50",
"k c #A5814E",
"l c #A8834F",
"z c #A58251",
"x c #AA8553",
"c c #AE8956",
"v c #AA8758",
"b c #AE8A58",
"n c #B18B56",
"m c #B38D59",
"M c #B88F5A",
"N c #B6905B",
"B c #BA935D",
"V c #BE9660",
"C c #BF9861",
"Z c #C0975E",
"A c #C1985F",
"S c #C09760",
"D c #C39B63",
"F c #C89E65",
"G c #CAA066",
"H c #CDA368",
"J c #D1A56A",
"K c #D5A96C",
"L c #D9AC6E",
"P c #DCAF70",
/* pixels */
"MCz24DGxj3n;h8pqy680qeshuhq%idvBMnMxhs68yyn7guigg3njqjhlnSzmjxzhpadM*iyuud9BFBdvbGvvBBnmBBGkrxyklmcBkqCBHVsHVVFHJvnBv7m,M1ddcxpp",
"bbd>=FFVz3z=ueqyq,88eeilyl8$iqcBcjlluy78yilyiiiiu7ci6iyhvHMmhnkuykpx;i8ihzySFBsfkGvaBvzcnBGmikyklxBkkrGCKHsFDDFHJvhjzqb-z>yaNxa0",
"zxp42DVbd3d&u6qi,,8uudyhez7%pibBccclsi68suihyiugi8zq3spxdGMbxnkprscd,uyihn6DSSjssKBtBmxnnBCmyiiklcBccwKCCFzGJDJFHjajNzx;k<6dNcz4",
"Bxd:>DCNp<h&i70h,;qh8hygyy7;ycmMxlchdi57uudz8yuui6cq6xehyDDnzxzpadkp*8yhhm9JBBmskGNkGNzncmBvaxikknBMcwJNVCbVJVGHHzhzCzv-a1yscmx2",
"bmb*>VCms%s*i6ah<4yi8syhpa81pMBNnxxnhjqy8upxuyiiu8zp1lehbABxxxndkzk4=ryijj6VBSBbaHNkBBccNBGvukixkMBBn:DxHFsCGDFHFzzaczz2t1kscbM6",
"Bbr1>CBmp>e%y7hd,<uheuuhya6;pbbDnxxjcds7eyuk8uuiu8bd<leikNNvlnnixmy6%q8hzdyVBBzqkHBvNAlmmNCnkyyllnBmzaLzFVsVHFDDNfhkBbd6y4syNxNq",
"Fsr<2VBms1l%y3da31uhiuhhyi7:yhBSMzzxicc7yiyl8igip8hh<hyilNNyknbykzzq*hiihhhmBBdpkHcxcBnMNmGBkatlkmcBsqHzVVsVGVFGVsfvbBjqs4aynxBa",
"Npa>2NNmh,h$u70d6<ikduguyd8#prMBmcljhhnepypk6iigu8sq;pyzxBbrxnzekspd-kugiMjVVVdcxGNzcBMmmBBBrkrlknBNcqHwHbzbDCGGMw9znBb0s4rdccCy",
"Mdx;>bNmz>p;y6yd878cy7ykup8$udbVMhllzunqadex7gug88uk3iunxmZsxnnypkhs>iiiddqmFBfxzBBzbBxMNBVmdkilllNbNqDwDVdNDFJFCtkyrmzrry7azkcr",
"Bzp*4mVVs2z;y8ih61yny8u8up7<ydMNxxxlljMeeeexyuuiy8di%8injnBfcxn8kxnu%iuihybxDBjClNDzBBcMBBBzkkullunnzbVfHNdVCVHFGrzdpbk:dl4axzvy",
"Szx*5NBBd7z4u4zf4*6nyuyuiy61rdvmxhhxhin0yeejuyuuy7da77yxxjVzlxM0nnsd>yyuzhxmBBbBaNBzmnbBBBGskd8nxdBxzSNxKVfBvFFHV5dasBmtdk4dxdzp",
"Vyh,9mmNpqd4y3zr8,7Myuyuu844qkmbjlhndyceyhegeuuiyyzz-9yhzxmsaxbhxkex3yiuxnzvSMbczNCdmxncNNGskqrikkSkjCbdGNzBfFHFV5kmsVbddtryNkz4",
"Cd314MCBzsr7y1yy6*6i8iuuy766qzcNcchcdaa0udhduiuui8nh6ehnjmMshjjhlicy6yuezhfNDMmbxnCxblnNBBGxiryklkAnkJsrVVmBxGKGCwkz7Gvdkr4yxkt4",
"Njl<0BCDrk87y6y06%6hyiyup84rNznccchjeaepqhcghueiuynq8usDhcmshmnyzkqf3quelp0NVnBnzNBznmxxNNBNkyakkxBxxKr7NVbNNGGFVsdxsVdztp4rxxs4",
"NzB40DVSqz:p748ry*8dyiuyyy7dxkNBnmhlpdes6hnhguigiiuyeyhnjMBjhncddnwp,uu8hk7BDDVmzbvknBxxDDCC8aykklNmbH4rHVbVmDGGNpdNtBsdqN<azkt6",
"Bbb70CVN;rqu8686u1ylhlyuy7rdNdbBcnlxdBddegxdhyigy8sh8ypilnBchcnhhdip&yuuhn0NSBNVczNkcMxxSGHb8kkykkBNdN7yPCxCDGGDVppNtzpk4c<yzkr9",
"BBn34DCn3dye6qqqu,ulinqihqydjjBxMvxkiJfqqhjshuu8yysx3qihhmmmhnBazhpy&8uikk4BBBBcmxbbzNzkCGCb0fkkakbdqmr0KNnSDVHGVtpk0mfxwb4rkawp",
"Bdp69FBN3xau7p0e8*ukpkuyhquuMdmmnhllySspqhjiceuuuuza4ydszbbnaMxkxhhi%y8gla6CDkBxdbbkxBzzVCCVt0ukdxbdwp2yHVNVDVHDVwrrtVzbqk4<ph4a",
"N7z35GMb0hd86u0pi*hnyhuih8yibdmVmhzzhczy8hjgluuuuudd0yypknBbyNblybkn&yyyldtNDzBBzNcfxNzcVVGmprsdpcvtqy;cGVVVJmCFDsdN2Vtm2j62xc9a",
"M0b22HbVa9aeqe0px6knykiih88ivzNNchlyznee6ijhg8iiiualy8enhVBzynnlippx,ye8lsxkBcczsNxzznccVVHVszuxunMjwa,bVVbmGVHFDdaN4VdBdh1qaxwd",
"ns9,2HVVaqsueuqsy6lnyluuh88yzxMbnzlhixyr8yjiuygi8yhis7qhdmVvannlhe8n<u8yldBzCzNztVbzcBcmVVGCyzuxdcBldn4vCVVfDDGGDfMvwvtz0s6yhzyd",
"Vqa,0FNVaqd7eu4py6llqshei48rhxvnzxsld62p8hjeyu8uiuyiiuqzxmBncncxly8c4yeuudCtbnNCsbzzcBNcVDGVsqhxlcMsbpfMGmVsDCGGGfVzpSrx0x4hqzyd",
"Sqc64VSMdesyhu0eu4ycihh8h6uudzMbnkxxqa6aeelduuyiyeydsuqlxxMncBnph7hM6i7ddkBzBnBxpVbbcMmczCGmppzkkkmsfiwvKmVsKVJHDfmx7Swd6k4h0bpd",
"Bqz;=DSmjh7yapqdi6ylhhuyh68yzaxzblkvyi7piihdiigyiyhhhurhiDBzdnksh7nn1hydazNdCzxk0VxclnBcVDHNxahlldNs0zfVHmmsFVHDDtmp3Ssz9aqiybqf",
"B2z6%GCbjxsuqq6jh<7hxugel888xezdMdzhkyizyyusiu8iuylypedexSSkznxug8Zz<huahhnzVxNkdVzbxxNzNSHVzhzhdkbs6drmDbbdVCFHCdB93Fsj4hyayx0n",
"bMn74DDzpx0ueq3jh67hzdhqlyi8pldsmdhxszNhy8pihuggi7liqyiydABaznMag8Vi3yypiajvmvScyCxxNnNmcCHBbqbuidNdNksNGzppVVHGmzmd9Djj4dyk4byh",
"Bkzq0DDxdj3ex96jd70hhjielyu8ymdjDvphhdzd87yuuyi8i8hleidhhMMdzzMphqMq2pyhidbMNzNzwNvdNcbczGHbn0niihxzpptNNbMhVGGDDzbjyVdj0buz3zpz",
"Zx6rtCbfsx-6qu1nh76hgxhulu88sjsfNdiziins668qiig8i8xgdhzipbzhxzxau8q;6yyipafmbxdMsVbzxNcNbCGNz7Msuhkkss4mCzvxCDGCVzVvfmjjqzek6kpx",
"Dqu2wVVtnm*77h7Vh6uduzaidee7zlejBddis8np61yuuhuui8xishhihkkzdkcypq27peyuuxxbNzyvbNzkzBbNNHFNf4npyumyd76CHfzzCVFFDzVzzVsvhnivqidB",
"nqq0wDbwcm#11a7hc7udqcdyde7qjl7jVjhzsej066iugiyy8unhuuihkhsnxbMupq7y7ypiykbxxspvNNBbzBBcBGCNy2yqyyzzcr9NHtdpFCHFVbmVzVsnZx0hpbdB",
"byV0wCVpsco6;96ym8guqzeuyge6nh0cBnlhhsh488uyghg8uiussuhdkhazbmcyyeqy0uhu6kBxztsxzBVbfxNzBHmbw0p6qidmB06NVwzzFHJFCbvVzSpnhnynhkyS",
"zBGwyNSwjc*<&0qqjehd3deqqlq6npenMchhllx688qqugiig84iuiiszkpnbkbyyyiq0huu6dBNNfzzyCCxbcDNBDmmh4yq8hkkB6<bVsvbVFJHFmzVMBdxhi8zszdS",
"zMn4zFVwsz;3>7q0r88u<k88rk88bp6xDNdphnk966qyidyui88yhgkadhpcBhxasdyq6uhdqkCDCtBzdmVfvzDmBDNNd3qquinzB4-bmxmfBGGGHVzvbCxbxp6hkkkB",
"msz4sFV5sz$;>4pnr88a4dry8a67zfrzCbh7kzMt7y8yiiuui8uuqgihnzpbBdvseiu64uuppkCNNdztxCVdBhSbmDNBk8q8hilMZq;vNzxdDGHCGVxfzGbbxp>zxxlB",
"jzvdtHD9jv+;$37x68886d8yyd68akpzSbhqvxxs88yphgy88i8iepgizdqxBzxiuqq70iiqyubDBddavDMdBnDMmCkNh6r6giinzq<sVbzxVDGGHDsfzVmMnp<accaN",
"vnxpwVD0Mz$,%766888k8d6yyk68hvbxSBdybBsd8u8ugguiyu8uuuuljh0xmxzvp006hiy7i0zCNdkzvCmdMNSmbVvBp4q8huaxjq;pJNxxNDDGHVfvmmmblp*yMnhB",
"zcBypVV2DhX6%600n77yyk7yuk87ddmvHAddbxddu8qhiipii8uhgyudndqfxvahquy2kuu8kqxVBzBzbVNdnnSbBCdxpr0pgyubpd4sJNzNVmGCFFsbVbSNB6%qxMiN",
"dqvysDm2ciOq;<6qky4iyk8rcl86rNxxGBupdByk8yqihiyui88uyiyuvkyzcxzayih-uui0dyzNNNxabVNzxbmnzCxxqx4qyuhmyw9zGztmBCHDFV0zVFBbN9-4cnxn",
"pdzpsFV2zh%h$64yk87a8l7ilkr8ynxxHSydyzrd88ykhuu8iu8yyiyhxrssMxxajsp2yikepqbmxxlkzVDzmcNmNCxdfx68uuiMk09MVNdbCGGCFCtfbVNfmq$4zMdn",
"cVpy0Fm2nc,Z;q6s8yyyyl8rak68rdzkJCphqk1d8uylhiugu8yu8iihxrydvxihiu0>88hqqhBBmdniMVHzNbNbNNdsdk7rygiBz0yjNBfNNHGJFC0xVVbNx6;qkzkB",
"xmtdtGV5hc6z,y638i88yn4lia889zbsHFpyhd;h8iikiipui8uk8ghuzd0pkkldeiq2euh8dkGBbdMpbmHzVNNxbBkhsrkyiiynzpdkmxzNBJVHVNtBJGzmN424bxld",
"bbxp4DN4nB4c3u3688i88n,Mld88qrzkFDdhdM8x8uigupuiiiiiyudumbwtkzkd7yp4qusyuhBAzbc7xVHzNmNxbCdlkkvdiuyBkrkxmxdGGHCDGNtzCBBmx446bxdz",
"zBzrtbN4vh7B<s4uk7k8il4Myy8urwdsGDzpdb0zyuyhiuiui8y68ikdnxpzzzdxedl68uy6bkNmxbzhfmDfBBbzcNdGuhmduiunddadxxsSGVCHGz0dNmNNz642nxzk",
"zBzr5bC2M0yv1i30k888kk4nryp8aqrvDSbzph9n8iikiiiui8yyyigdkztzdkkds6c4qyuqadmbbzbbdbVsVmmfbVdDppdyihihvkrdzNsBGVVJHzpdNBBcz676Bbkk",
"zGra4bS-Mqh88h1dk<88dk4cxir8q5rzDCbxyddc8yegyuhi8i8yykidzxzskkzksqmtuyiunlBxNpbdjzVzSNNbnDrBv8irdhykbzpizzpxCCVGHvfdGNnkx888nMdd",
"zkrz0xG5nyj7ql2dk4g8ld6kra88r44bDSbkpyzj8uehuuiuuuun8ghaddrraxddyemfeuiqzlnnVdMdxNVbDnnbxHpbdpsyiiexnxrkdfscGDNGHVbyGDBxk7r7nnxl",
"Dd4rwmN9n4h6ys<0y6y8xa4d8uy8z94xVBbhpyze8iihuyhgu8uc8ixkxttzdllyyhhqneyizxzfbsNmdFVzAbbnvDyndmk8hi6hnh4cfztdCDmHHCdxGDBmc4r4Mmxa",
"Bc4sfvB3Bjpzuq-6k788Ma,yuyu8N42vSBbxp1dd8ueeuuiiiu8kykxdd4pbhacyqph0buhudzsbNsGxwFBdDMBNmxsxyvkyiu7jzv<zzvtsCGxGKGzzBNNNx:r<kMcn",
"BGypzcB4zhry86-<k188ly;qyq87M4>xCBbhx68i6yyuuyiu8iudyhkkc7pzhdxpqdj9yeiamzdmCfDmrCVzNCBmNB0dpaxyiuqBvd4xnFpxDDvGGCfzDDmBd;s,xnzz",
"xnddzzmwzqra6a;4c487n81yyyy6c<-fmSxac6ud88uipe8ii8qiuuuhz4rfzdkd7ixfeqyyBlymCsSkyGNbDBDSMzpbF0a7ly8Sbf4bBGwbDDbDGDstNBbnb;h;kzhx",
"BzrlzzBwb4pp4a-6c8y6xy4qyy84kq4fBVmxy38h88yiuyu888ihiiyuk6zdzzla6qdsd6idhhuNVymbaHDBBBNGbbdzBri8hy7Mmw2SBHfmVDmDGNfzNVMyd%i<czhx",
"BypbszBpx0a7q4;<Nay<da88pu67ry4zGBzkl66j88piiuii888niipyd9bdkzpu3vzta6yiihyxDqbcdDCDNBMDxmszNvz7yy6mma0FBDsbMFbHDNrwVCbdj3j<zhzh",
"x0yzwzNsb,uq304<bly;kpy6id6ydp2bFSMzh7ei68hpgiiu7y7Bdkpyhpmkxn0yqvhwdquhkkybFtbvpmBDMVBDbNwzBb07y8ynbb9DBSdxVGmHCNs0HNMBj6x;maxc",
"bzdx4vN0x>zdqy3<qM8*aqpqkk4idt>mVFnxhq8s8uhyk8iy88yldiiivqMzhz8qyxvt6s8ixkuvVsxndNVBmVSVnb0nMhy78uhZmv6VBBsmmHNGCCztBBbBh6d*cdxn",
"Nbsd4xBtM0Feuyp46B66d8ryld8rv9;xDGNzh4ee88xuiyuy8yychuyadwMkhzq8pzkx8iegddvmMdbqxAmBvBVCBxrcvuyqu8hnvz4SNSsNNGDFDV00Mmbxhqj%cpnz",
"ybsr4vBwz3vyayw46Z8yr7u7kh8pd4%zSSMyhly888nkuuuuu8qduuhxzqMhlsyuuxdv1iyhvpnVCdbrvDSxxBNVcnzdnsyyuylbyd4CBbbNVCVFCV5wbDzbseh$zenm",
"yxda2bGwb2cxuy04qM6u6y08le8un77xFSmppb8888nkg8gi8uyddidxldMdxzyypdfx<y8hdxzBSxckbSAmzBNDmbxdkypii8zM2w3GCbzCCVmDVVypsDMveeh-n6Mc",
"rdrz4xCsNdxchiy7pn1l67pynq3pvdrmFHbkizu888cpi8yu8i8duyiakbbdhzyqpzdV6y8kaysBDvMdNmNzNxDFvCszkuyuyqhv0spJCzfDmbVDVFsdMBBcp7e<n9mj",
"py9z4bVdb0Mmlyq4dn4lqug8ny1ib0szZHbniN88u8lhyuii7lykpuylzmzzhj8ppddS1y8lqidCSdntBkMvmbCGxSzdNpihqecnwzdGJVtVNVVFVDtznbcMd7p*nqnh",
"akwqwbVsm4nzkpr;un1l18y8x81ys;bvSDbnuh76yulhiu8i8M8cui8cdbsdik8pdp7l6u6u0pdmBtnrxyNzmNVDNNxynyihy7MndzsGGbzmDNmGVVpzzmcBs6s*zscd",
"ylyqpmNxbydshpy<8k<k-ei8l8,7q6NxBAjksp<888kuy88iynaB8y8Bdfdzhi7yyyqvry8drdzVBtc9baNzNVFCbBNkkqakqhMczfzDCVfxCVGDDmyvjDvzh6e,cdhq",
"xdp6tbbxzk8riua7ik,h16uyhy;6hdBzBSzddp,y88iyiuik7N7nuirBdxvdhz0ayr7d7a8kdzNNBtvrbxNzmVFVNBNsauyz0kBvhvbDFzvzBbHDFVpmcSjms,q=cdhs",
"bdz>5NCxmhawyua6is*k18yyh7%8bkmdBbzzyt28g8ukuy8g4n8xlyikzbbdhzyqp66s8arltrxzbqd7VzVxNNDVCNVzpyhhlaZdqsvGGbvdNbHDDCrBxFhmp363xahd",
"mkd0wBNbxsakipk7da*n4yyyi8,pBxbzNxyk0d4pg88liuu88kyakruhdbDjjhqspq6i4u8lsdksBrndVzmxNBGCNBmriqkphhBv00mGDDzfGbKGGBwfxDjxp33echjp",
"xdp4tVHzjjh:iphqku*h8yuiy1%yydBvnvil0z8qu86li8uu8ddqryikzxmszzyyyyyh;hqleqBdVyVqzyvczNBJGnxysuukkcNcrwbDFGxdDbFHFV0sxMdMr267vkxd",
"z0x2>VHvxhz%ypd0hz,l8piu0;>dtxZbnzkhqba7888hugui8udri8akhbbydxrds7Bd<iylhjBpD0BqtrnbNmBGBmbzxrkkkxBbq4GCNGfsGxFGDVppxNxb9626znak",
"zpb%<bFvvai=ukx8up*luiyu8<<j4jnMxzua9zdyy8ykhguiyyudk88dcBzpsxrkhqFi1ipuhpxzmwbqkkzxnxDBVNHzxxukaNBkwwGmBHqbDbHGHmVfsDNb9<-6lnaM",
"syz%-mFzBhz-yuh8zq*hldyh813y0zzZbxxd6bz8u8rluuiyydrBlu6ncMzarc7lpaFd<yy8qzczSrzqdnvBcvDDNNCzkxkkkxBkrzJmDSsbDmHGDNjvpBmv4<$9pnzx",
"dfp<>MDmznj%qpMyhq<pip8up44p0kvDnllp6nv488ukiqyu8u7kyy4xkBbarnasyzvb%yiyckcBBrd6BzsvlcBDVmCskbkkkkNxrmBNCDsVHbCHFNyNwnBz4<&rqxbl",
"sy0;wSVjdzj%p8xyu71hky8uu11ruxdAzddl7Bq6iuyggu8gu8xlau6nkBVdszkaihfd;8eidxkvGfdrdxdnccBBCmVkvbkkkkxxkCHvDFtNHvKHDbwfdVmM:4<t>dxd",
"p8u$qDDnjzz,iqhphh,eky8yh41p8bbBzkid0xr8e8ypkui888cdyu<bkmGpdkprkzdd;8pylmdbmdvyNmpmcnBDCzbvkaapkavNkCGzDCfVGVHHDvxdzBmB<4:a%kkb",
"hsd6tDVnjne;ipz8uk,qghqyu<6dqzABvkkx7nk7qyuykug888cduh4zqzDpkxpyhyBz&yuuhNvfbzzdcvplcxBHBbNzkrqkzkxN7CGrGNpVHVHHDbmdvnbb<4<d$ddB",
"zhq9wDVbknh,hyk3xc,7kk8qi%4xqzNBnckl6B77dyk8giui88dryy6xldGpkzpay7Nb%quhdnBpbdkzCztpxNBHCbmpx7kkizBcaVG5JNsBGmGHHxBvfNNx644k#kkN",
"vS4pyCmndhz$pyduix68ak68a*%k6yBBmhlh6k1qd8lrkhuu88y4t84yxaBazzai77NxO8uupmSsnxsdvtNzcNBBDcN7B8uiilnmpCDwKNkNVVGHHCmdxbmm444kOpcN",
"sD0hwNVxxMA*ypnqyx71il76d,*k00BAzxhh4q80apkygh8g84kqyu<zxxVdkzsa77zk+qiupzAzbsszzzvzmnBBBNBwNykkikGkrbDwVbkVmGHGHmbcvDNx<7;kXkBB",
"tMkxvVVxpBB4uun4pjy6hk64y<<kw7FBzvhx4087yyzykiig84k6yd4xzBBsskykp7yd;ukihlSkxzasvzkzNcmmBcS7NrlkapmkkmC0LNsCVCGGHfzfNNxz4a*zOdxB",
"5BbMmBSz9MN1ppMqza81yxq674;kb3BBvhki70p,uqaaigiu7447qa;cdmBsazkkdayk%iuyaNBNVzsssdkzBBBMBcB4nslkpkBakmD4JVkVmDHHDbmvBBNz4k;d#kxB",
"3MNzNCmM0bM<yry0bp46ily8y44yB4Bmnkhp76z3rq7ahiyi8;rq4d4BkxHskzzkaysc$guyhnmxCzpzvxvzMmBNnnB:z7kkrzNtkGD4DvsmmCGHHzDsCBVz7i;k#zdB",
"rvDjbVVNqcl38ubdn4y6ihy8a4p4k6xAbzhyq6z<ry6diiyi4&l7ay4BxzVskzpa4rdxOhadkkazNzzvsNxkMNBBNBx5ztul7dBikGnpbVwGNCGHHznBHBBd6y4x%zkN",
"jzzdsCVx7Mu<upmdd,y6iu88y4yrddBBnxis64vquz7lkiy8y*B4774kxdNxkcky1rzzXykykxdMbzdzznNknNGMNBbwdakkrkBtkBrkVmwCVCHHDvkmGBNx8r<x&lsN",
"BjypsBVNqxq1iuB82;u3hye8p7qxpyBBxjyzw2z0hp7huhue88k4464kxpBkzckia4xx#uudknMDBsxdVsbxzBDBBBbrddaapdxdzH4dGVtFNFGDGzxzHSCx2q,x;kaB",
"bd09bNbbrx41dyDp73u7iiy8u87MhpBcnpsis3hqpqykyiei88k*4armAkxvznklz7z2OyiyuvqvDdcaDpzzfCBnBnNpdxalabbvdP5zHbfGmCGDDxxwDDNx641Z%kqB",
"spe3vDVCxb4;iaGii4y6hiayy6ynzpzNxahhp3dhieephuyu87d4rk6Mkkkbkxkdk4nq$yidezqnDtfrbaxzxnBnmNDsdx9kacxmdL4yHb0DbDHDDcd9BCbmrq;N&kdB",
"aq04mNVDsz64pqA8xey7zhsep6pjdszMbykkw40aiuqyugyu77d64i7cvpsNkx0kz6lp$8dksfdyCzrqNsxsbxBbmbVpxvaxacdBxV<7VvsDxDGDCvxpBBxmd0%n,kcB",
"00y6xVDGpb<1h8MaMeu8hquyyeidzdNmcsxud<wsuyq6yhu8888NairlzzcBklacN4sy+yaksnjxBbd<NtzqnxFbBBBpaxdkyMxcxm47bz0GzDGGDzBlBBNbp8;n<nzn",
"hnMszVVSpyy<y8byi3yhih8g8yiaqdBNbeiqz*qyyqh7ihigy6rykurkkxvBzkpnz6ayOyglibbdMbv6bsvpzkDcBBBdinigdMtxzzrrVNsDfDHFGtNxNBxNr8*k;Bxb",
"dVfcNBNSddi7yqvqe,eisuqj8yyp9pmVd0sed39yeydqiigur8rdyridBnvBklzyd8p7XykkizfkBxvqbzxdNxBnBNSzpzdhkBrcx44pVDsCdGHDCsxxfBbxp71i*BcN",
"qBhjDGbVvd08ypzyq<ys0iey8yuqpyNCfqyyv607yyhqhuyu88r8a6plvxNcznkrpky7OuiyaNszVzn6bvncBkDbCBBb6kglaBpzz66zvVbVzGHHHstzmmxx681p<MnN",
"0bxzmNbVjpp8yyx3e,6d6dys78pqswMMfeeecqqqyedyehyuyuir8yixBcBNubxyyxy7oyikunvxzNzwNbVzNxDvBANx4dakiBszz44kbVBVxHGGGsaqxbkx0q4q<BxM",
"6BnxvJbmBfy8yqz9e66y<hei60e9h0mVsqqap9queskdydgiu8xauuammxBcpzhyuzqtXyiipkzBVdxsbmvfBvGzBABb4bphiNpdk4pkvGDNNDDGDsdrNNzbqq643Mzz",
"qjNnyGVbBywyyqzpy11j;h8nqey4q4vMdp7efqqpeuhkiugi8uappukBccbndnxrdpptOyhupdzNVxzdbVbxmxCxBBNz4zikkmqsdnvdNCKbxGDDGrNlzNkny8727ncz",
"pdbztVVVZp6uhqqqh7,c0j8n8iqqe3fnda06z6eeygihiehu84kdy8ylxkmxkzdyukysXuiyyxvMmdbdNVbxNNGbNCBz9kukiBpskLNcNbKbvGBHDwNzxNsz0y067Bcd",
"dzvdsDVmDy88i70yd8*z8x3jqeu3q0snsg0adewqyjghhiii88nuk8ixlcxzhnzkyaqaXuuyuxNnNdddzVvzvNGNbBSz6zulzBrr7BksbbGzxDbDHdzhxbycqyq46Mxs",
"zzdfxDmzHp>8uyyae8%hgj*h8iy8e0dSsehjhepyyuhhhiuii8nkdyicxczklnnpqmsNOhdy8aCbmpdpsVzzxmNbNBCc4ryhkCtw6NkaNbHtNHmDCzphvbdDpa860nkp",
"zdq2rLMzBs-u88ppqu*0hh&duuuedzjBe0xhp3uu8edjguiiy8xld87Nbbzkkcbp6cyn#yhq4dBdbddrsbfzdNNbNNDbssukzGk5BlaaxzDtVHmBCfqbMzzMak6<qmkq",
"jjqswKNhBz;88pnhq6%0gx&iuieyqczctydesqa8yeuhguuiyrkby8yNmbxdkcnaqzsx%yu87aSxNspNfbfzbmNNNBBNabdddDz4xxrkbsCpCFVSBybzmzzNyx434Mzp",
"dzhs<LNdNk#y8yxkqq+4ux;aiuyyrznbrik46qz8y8idgi8i8gmivy8xnzzzzbnk4kdd#yh7qwHbmddBsVdfzmVVmJCvpAghkAsv6arkxtVyCVmDV0ddMzdm9z412nib",
"djjdqHVsbd%p8khd<8+4ka4skyyyukzxrun847zqyuuph8uu8ucysyyxdczzxnnx0zsaO8h8q0CmxzrBzvzxNmVVmJGzhckkkB9N7k6dfwDwFDBDbszMMzdb7M86<bdz",
"zzhy2DN0cp,u8lll4p%<aaqyui8yidbNkpi6q4jui8uugu8888hh08uadmkxxnxx2v7a+yh8pyNNxzqBVHbzNBmmzDHzuakkdx$yccdkxyD0DDmFMpnvvdiy2B8q2lkz",
"bhhc>DVtbk*yykll<i;&krdpyu8uadNBbup4z0bu8ypugiuiy7ehu7uBzDdkxxxd4Bru&ugqpqCtrbpkmHxzBBCmvDGN0rhkaBr0BBmrVyC0DDVCNznnBsde2ny74vhz",
"zvxp2FDwmy%u8khd<81&zqkr8y8hykNNvqpdxzzpg8uiuyyyuqwdd6aBfzmxnxxa1npp<ihpyqDztmdibGDvbDBBxSLbrshkpt4qNxx8bzVtCDVHVvvDBapp:ly8wmxc",
"xmMp>VVwnp<pqkaa186%h7aqpi8dskSxzq8idddag8yiiyiuyq64drykzybznMzppyyl,igyq9JjzbqNbGDpBVCDbSDxdsgkaBtGMxkrMMNpVCDGbbMSNhhz;iy8ynkB",
"kBxy;DVjxw%y8khz16y%z3yayg7dzaBzdy7rzsta88ggiyuiu86yzquhzdxxMMnhdyab,yuhxyKfmx0zVGDdCNCDmNVVypik4zxxnbc7DvzpMVVDVNNBDdjd$pkyqnxB",
"zza0@DVxMq&u8ihc68u;z:ydyh8pbpBbzy76dadpgiihgyuuu80rhryzskxczzbptxyx<ihsBpDzzz7xmKVzSCDDNVCVykddszBznzB2VNmzVVCDVbDNBaxz+ddrannB",
"zidq HDmNp188hyu<8i1c>hdud7yhubnby8rp8zyy8hikugiu6uybqplpzzdknnphnwd<uk8BpBbzz6NVDVbmVVVvBBz0r8ixdNzxbb4SNbzGNCHVNGNBdlc$kyqpncB",
"adz2@HbNVw168k6u,8l1n,kkuy88hkxMdrk7kqvry8hiiyiu86yppr8hambznxlahvya4yupdrkVbz4cVFVNmCVVxBNNwqkauxDxxbp3VbxcSBDGDxBcBanB$xy6pxnB",
"zpz4#GbmAp668hya,7l6n4hiky84zzxCkaBpcyi7i8yuuyiyy4kk8a8BxbnannxhkMan6yyimrNDNfrSVVVvzDVNbBNn4srkibVbbpq2GbkxDVCDCbNmNkNx-pr4ancu",
"kyxaoSNBBq686p0a66h6M4hkkyu1zaNCngxik6p0i8ykuyuuu<hx7nyxnbxaBnbkGyzv7uhiBrVNbzqNNVVzzCCCvBbc2tu8dBmmxa04NnMnDNNGVvmMvyxxOpk1abkM",
"zyhb.BVCB088gi8h81g8x4kxli81mkxmbubkk8u888ggyyig88uq8hidxxBqznndBk6z<8huGyxVvzrmCDDxzGDVBBNx96ykpNNBma84NNmbDCDDVbVNxacl$aa<pMkB",
"bfhN+BDBn088yhyB86i7c6ldly8<bkvnkuqca78ri8yyuiig8yuqysgdxfSqxnbdBBsf68giNfzVxf6NNDVbfDDCBvbc7l4lpxBznrqqxNbNDCSHCbbxNycsX644yckx",
"NsqB@NVNMw48iy7n8686kymali86npBMzpydh686uyyugguy86i8aihkvNmybnckdzzr6yduxztVbz4CVGNbzDDVBBxxraylkxnib8pyzxvxSSHCCbvxcrNa#47$aczx",
"myxz@NDbb368iyqB8668dyMilp86nyBNzu8pp788887u8k8iy88erkaxBbbqnxlhaya41ygkfszmzz0bNGbVbGDDBzbxcr8uklnkc6yizdfzDBHHVbzNBqMr&p8#sxxB",
"Mxzz=DCbB,68ruyx8868denzxq87kdDBkdddrq8yy8yyuy8uyy8dylyhmbmdnzkbxi8y78gdzqpfvv9nbHzbvHDBBmbxNpklulakxB0kzdhbVCHDVbfbMyB0%a7$hnhM",
"NNdb-GVbn4188hqz8868yqnxlqy7xlSBdpuz0pr88yu8uuiiuyyyrpykxDNaxacknpwd7ueaujfnvbwMvGbVvGDBBBBdnahlpdynxSzddnvvCCHDHNtmnqC0<d6$sxhn",
"ncxM>VDxbq8y8l4d778ykynxb7y8mzBBzxkday8788u8uuugu888daalbNnhnMnxh<7ceuyhcMdzBvqNsFbzvCBCBNbznkihaxyZbmxzxDvfFVFFJVzNvsV0qh6$znzB",
"bnnf>Jmbn2*8rh46866yh8hnl7rumkxbvdynaq78i8h6i8igiu<6drhlxbpyhknxhpxx8uuhjcdcVz0dfFbvcBBHnBCpBNduhkpnbhbzxDzxVDFGHBmNvdMdzz3-skhb",
"zcZs4mKMBq1r8l8p8868i8anz888mhBbxzypu848yui8i8i8i888kqdabmttcnhlnyhnp8ulpdsNmfwMfGmNmNxDNBBrBzhkhyuNbkMzzGdvFDFFGVdmmdzdqh-6snhB",
"hdMq4HFVN4<yui7zg86ghiaxxyq3Bavmmkkkl88888g8uuigu848ddukxNNtcxnnMyyMuiulidpNDfwBjGBVmBmGBBVymzudyuiNBvvdvGzxDDGGDVrbNzzdhx*qinzM",
"aa6w3GDBn<<uuypy8888hylnly<6BipSNzlduyu868c8yuui87867kaaNDNtlncny4dsqyyhxyymVx0BdDmBNmxDBcNrzdyagydBMrxdvCzbDDFGFV0xNss9xz<uinhv",
"dqz92DHxB*$r6pqr8888iyllks36nsbGNNklk88868g6iuu88yy7<aasVCxpccknq4pd8gyhappVDzpNfCbBnbbGMnxrrzyakyknbwszzBzxCDGHHV9mmyfynh4pdMdj",
"z0m2=GHbN4<qqyia8u8qiuknxh<1npzDBmxhbryu8ya4g8g8iuaa8akubbbsvxlnypzq88ylpbyDDzsbsGzBzNbSBmNprvaikykBl4fbxVzzDDHGDB4BzwzrZ88ihchs",
"zyD>=DGbB;<6qeupyg8yyhknlh41cyxDBFzkk7g88ylqg8gii8qdykudVmmflxxcydS76eyiyBhBHMpBrHbBzbbCBBBs7yyakglBk4tzmCxxVDKDJB7bk6vwZqelhMdy",
"zib;2VGVM363eyuxui4ipilkhi6<kybNFCNknqu887lyuuuui8p48ddlMVbznckxdyM068yhhnhDDxdmkJBDzCNBBVBzrsyyihlNx9wHDbxxDDHHHD8Nz6zsZ3hxbbjy",
"hay-2BDCn>8<qrybyi48pyxlxh1,csxBSBAzph8y88lagiuuu8dp8ddkBVzjxckiz5yhuuylhxiVVvybdDBDkCmBBBNx4a8dkkcnNqxDLNbSDDKHGBrNppx0Z4nlkndw",
"xxs@;FDVM3i>pyyByu67udxhlh6*nqmNBABd8h8ui8ldgiiiy74MykklMScBxxzxbqqi8uiyibsbbb5vmDzDxBMnBBBb6drklxmNx4bNPVxCFDGJGbdNmqB:b3Fkknia",
"zCy#2DDVj3y>ueynge88uaxhld8%xyxNBNnnkc8y8gkiiiiiy44crkuxmDMBlnnkxpvpqyihdxdmNx4vdBNBzBNcNBDbqk8dklNBzqbvKDxVDDGHHxcBzqD<M8nxxbdp",
"bMx;4BGBc3e<seydi668ypaklk7$yrbDnBdbkB8y8ukyiuiig6dk7zykcFBncnnhavnx8iypdbsVMvpblBvBBBmcBvGz4aukknBBz6zdHVzBCCHHHzbNB7N3b4hxhkap",
"ccx;5NHbz2q;u8upi668yiukdhy#b0bBBnBlgi8uy8cqgiiiu<ZA8krknBBncnchhhhn4k8uhp9DMb9zmGzvbNMcCbGzrukkkMBcxtNbHNpGBBHHGzkbz2m,b1aixv9p"
};
