/* XPM */
static char *tile_no[] = {
/* columns rows colors chars-per-pixel */
"128 128 111 2 ",
"   c #020200",
".  c #070801",
"X  c #0A0C03",
"o  c #0E1104",
"O  c #0F1008",
"+  c #121406",
"@  c #151906",
"#  c #181C07",
"$  c #121509",
"%  c #161909",
"&  c #191D0B",
"*  c #1C1F10",
"=  c #1D220D",
"-  c #1E2211",
";  c #21250E",
":  c #23280F",
">  c #222611",
",  c #252A12",
"<  c #292E14",
"1  c #2A2E18",
"2  c #2D3216",
"3  c #2E3418",
"4  c #303617",
"5  c #313619",
"6  c #353B1B",
"7  c #383E1E",
"8  c #373C21",
"9  c #393F20",
"0  c #3A411E",
"q  c #3D4421",
"w  c #3F4822",
"e  c #404723",
"r  c #434A25",
"t  c #484F27",
"y  c #464D28",
"u  c #484F29",
"i  c #475027",
"p  c #495127",
"a  c #475028",
"s  c #4B532B",
"d  c #4F582D",
"f  c #50572E",
"g  c #51592E",
"h  c #4F5730",
"j  c #505730",
"k  c #545C31",
"l  c #585F33",
"z  c #57602F",
"x  c #576032",
"c  c #5A6335",
"v  c #5E6837",
"b  c #5D6638",
"n  c #5F6838",
"m  c #606A36",
"M  c #636C3B",
"N  c #66713D",
"B  c #69733E",
"V  c #656E40",
"C  c #677041",
"Z  c #6B7541",
"A  c #6E7943",
"S  c #727C45",
"D  c #727648",
"F  c #747D49",
"G  c #758146",
"H  c #798546",
"J  c #768149",
"K  c #79844A",
"L  c #7E8A4C",
"P  c #7E8850",
"I  c #818D4D",
"U  c #84914E",
"Y  c #808650",
"T  c #828C51",
"R  c #869252",
"E  c #899554",
"W  c #8D9A56",
"Q  c #8C9559",
"!  c #8E9B59",
"~  c #909E56",
"^  c #90975B",
"/  c #929D5A",
"(  c #95A35D",
")  c #98A65E",
"_  c #969E65",
"`  c #97A460",
"'  c #99A561",
"]  c #9DAA62",
"[  c #A1AE64",
"{  c #A1AE68",
"}  c #A4B266",
"|  c #A8B767",
" . c #A9B967",
".. c #A5B468",
"X. c #A8B76A",
"o. c #ACBC6B",
"O. c #B0BD6D",
"+. c #B4BE74",
"@. c #B2C26E",
"#. c #B4C372",
"$. c #B8C574",
"%. c #BCCC76",
"&. c #BBC678",
"*. c #BECB79",
"=. c #BFD07A",
"-. c #C0C67B",
";. c #C3CC7D",
":. c #C0D07B",
">. c #C7CF81",
",. c #CFD587",
"<. c #CED886",
/* pixels */
"y r w l s 2 s q 0 0 . U 6 p N g 0 g : 0 i 4 0 0 : 0 = = < = = < = 2 : = + 2 B X = o : c < p y r 4 r = @ ; = & & 5 e w r < w r   Z &   r u u X + e q 9 7 j s j h > 6 9 q 5 1 9 < s q 7 e h u u u j u h k s u 9 r q e 1 r u y $   F Q < s r 9 3 n y q $ n 5 9 y j ",
"r w r q 2 w w q : r : g r 3 6 4 = 4 i # v 0 = 0 0 0 0 = = . = = = # = = : B   < 4   3 2 + 3 4 r y : g N d k b t 6 r < 5 q 3 e   q   k F - + &   X & > & > % $ + C 1 < 6 5 6 < 5 > 5 > q 8 q u h 6 j s u s w 3 q 5 u 4 u u X   K ( > s s j 5 r s 9 $ A 9 9 q s h ",
"s f s q 6 s q s r 0 r 0 w 4 r i # 0 0   v 0 0 0 0 0 0 < o X 4 2 3 d r c z # 0 0 ,   %     ; g y = s 4 p ; r 0 5 s r 2 r 7 & e     h ! , . 2 3 % X , 7 & < > & K $ h u k j s s s k & 5 y r q l r r k s e s e j c 9 5 1 r $   T ( , s 1 r q r r w $ C j h y j y j ",
"r l s g q w y r r s < r y 2 p 0 4 i 3   G = 4 r 0 w 0 0 2 o o 0 g 4 d p 2 i <     % p r s + + p 4 g r 3 w 5 4 = x 7 5 3 5 4 =   y F $ , o 1 > & ; . > 5 1 5 b & r u q q r s u u s . q 3 l r r h f k u 9 3 j y 9 r 5 & 3   L Q - 6 e e 9 y h 5 + C q r q q y e k ",
"c c s y r e s 4 3 d 0 0 0   z # p s r X g 4 0 0 0 X @ + . = o . r p i 0 5 6 % 7 X S g : r q & = . r = , , w 5 4 g @ , ; 6 %   h Z > 5 r + 1 3 < 1 < X 1 9 V % 9 s e k e s e s u r   5 w 3 w r q e s s f s r s c r q .   j r   % 6 s s r e s   B r r 3 < q q k k ",
"g k y d 0 k 6 7 s s 0 0 y X r 6 0 r p . z 0 6 @ < d c N c 2 0 . z 6 6 r 0 6   $ ~   s u 6 w 3 .         .           X       k e s w y q + < 3 5 r e 1 < u & u l j s r r k h l q g . 9 q q 8 k r e u s 7 e s k k . F   4 r I k m r 9 y s s j   c X ; & 1 q r r u ",
"k y c u s r p u x 0 0 i 0 . r 0 2 p 6   B s < 0 = 2 i 0 0   0   s 4 t w 3   = H   w w r u , @ o   ; > 5 > 5 , + - = 1 5 5 b k + F 6 9 s $ q F 9 e + > 5 , 5 M l k h e u k q s r s = e r = 6 < & O $ $ .   o &   ,..   5 c 5 6 1 s y < 5 7 5 . > < l c V > 5 r r ",
"s u s s e s r p s r w p p o p 0 i 4 4 X v 4 4 - 0 0 i 0 = = 6   d 5 x 7   $ I b 4 s e r 0 r s     , < g f s r r > r c m t = 5 t r < r e + P r k s 1 > 1 r * 9 r y k k c j r 6 j k . q 7 q 9 w j l c 9 4 4 1 4 1 1 &   1       . > X 5 & = < * , , 5 8 q r < h j ",
"g k s s t s u f 0 r 6 q g o c , = r 4 . 2 r > i r w 6 2 4 X : o s 6 6   $ I   m r p w 6 w r r +   e < % . .   + e 6 e 6 : 0 6 & - + $ * D e y u f + 8 6 9 9 , 8 h u c k l r s u k & = 8 6 5 6 q 6 5 $ .., 7 ; - = ;   2 # + 2 2 4 : % & & = % + J $ j j s j e r ",
"k s k s u q q q 0 w e g q   o   o .   ) < # 4 0 0 0 r 2 6 = >   s X   + L . ; c 6 w 6 r e 0 r . . s ;   B M M Y o 4 : 6 X y 5 c 3 9 9 9 5 q r e s $ 5 e 5 3 9 & r k s l h w r u 7 o & 4 6 9 > 7 6 & ;.. u q 6 q q 2   e . X @ 2 : < < ; ; % & , q q k 8 3 r l e ",
"7 k k s r g < 4 6 q 4 5 o 6 c 4 g p G . 2 4 0 4 6 , : w 2 o =     X $ E   < o c 6 0 r p r 6 p X o p 2 . t 7 r 5 t 6 7 6 m y ; 0 6 e q r y y b h e O r 5 e 9 9 r + s s s r y r r u ; 3 $ u 1 = 9 5 #.  r 6 7 q s q = X 5   , < % 2 6 < & , ; , < n w w k c b k j ",
"; 7 + 1 %     .     .   o               #     . .     . X X   H w 0 I   < q + g 4 0 r 0 d r p     y 5   g r r 7 y 6 7 0 7 6   p k u r w r j r e 6 ; 6 r 4 5 6 8 9 - q s h 9 h e r $ 4 r q > & & F s 5 y u 6 , 7 y 7 X > % & ; , 3 & 1 < : % 5 1 3   O $ O & + % ",
". @ X +     7 5 , , 5 , % & 4 4 5 w = 0 0 w 0 0 2 2 = 2 3 % 5 d 2 #   0 p 6 X c : 6 p 6 s 0 6 6 4 X ,   c 0 r 4 6 4 p 6 r p @ s q r 2 q j s b r j , 6 6 1 5 5 , < 1 3 A s e u r 5 % 6 e 8   / - < 6 r u 9 e r r r ,   +   .               X                   + ",
"c M k 7 6 N e q 0 y 5 0 0 f m M v z d d v m v g v m g B g   0 g ; < 6 5 < 6 + g # g r s 0 0 w r r + :   p 4 4 t 0 y y y g e + g e s r s s u u u r , e 9 q 8 9 e & & 5 6 s 9 9 s y X & r X *.w + m % s 5 r 6 f q r   . 7 g s k h e r r r y s s k 6 j y h l n r b ",
"r c q 6 r e g g c 2 % e : w w 0 6 0 ; r r 6 0 0 0 6 g 0 : X 0 p < 2 4 6 4 6 6 2 6 e t r y y s r 6 7 X + 1 0 0 0 0 p : p r g + s k s y r s u u u r > 9 q e q > 6 5 * 1 S q r k w w $ = X &.w m X c 8 4 9 e 1 5 q     E .   X + O { 4 s 9 k s s y y h j j h r c k ",
"k s e q 6 4 q 7 , < + r 5 7 7 r w 0 0 6 4 6 w i i r y g     L w 4 6 4 0 r 6 0 e 2 e p 6 0 r g y p $ ~ + , 6 4 w 0 t 0 0 r p X 0 e e r f u e e 9 l > 9 u 5 6 1 4 <   3 V e > 1 9 q % O #.9 s 9   A u 6 -   .   o   q   T e q 1 9   & > > X % 1 h r s q j q r r r ",
"q 6 y r w y p 0 r 4 , 2 ; 6 t 4 0 r 6 2 q r r q w r e     L 3 ; d 4 r 0 r w p s g < r 2 y s w 2 . @.X 0 o @ 7 p s r 6 r r t # f q r r s p r r k l , q q 1 & & < >   3 S r 5 9 u r & P 8 k s 5 + n s > 6 l b h > X ,   o           . .     X $ 9 e q t e y c 5 t ",
"6 : 4 0 e 0 r y 4 < 4 : < < ; 7 0 6 6 r t f w t r e     L 5 : y 6 r 0 r r s p s s 6 @ 2 y 5 5 $ o.% : e e & # 6 r 2 4 0 f t 6 4 y k q f r r e g , m r > * q 5 2 X X 5 l 8 r r 5 6 & 3 O o   O C 3 9 w 6 5 h h   1 9 5 y s s k r y q q s c k h & & X X < X 5 5 s ",
"r e 5 6 0 p p y 4 r 2 2 2 0 t r 0 r w 0 w k r r 4     J = . p 0 4 g r p p r s p p r X w r 6 & #.+ g 0 s 6 4 4 2 r 6 6 i r r p f : 9 y g 6 e 9 k e u 8 5 3 5 > # _ % e m 3 h e r u ! u s c k V 9 h w 2 3 j s   * ` q X l q s y 9 r h m m m l 7 1 > % @ # % M s w ",
"r f 2 2 t p e 6 2 0 X , ; d r e w 6 6 p y t t e     S t 5 : s 0 r g r s s 0 0 w l 2 < 2 7 3 R + y u 7 s r r p = o = r r 0 p 6 f , r q 0 s r k r > r 9 8 5 1 $ _ q = 5 f 8 h h y + D 9 e 5 y 7 w q 1 l u 9   $ { . 3 y   3 e > r 6 u u e q r u 7 & o   , & N 7 r ",
"e 6 p 0 t 0 7 6 ; o ~ ; 7 4 X .   X   X & ;   . X + s 2 7 3 5 y y p p g u e s j r t & 1 e ; g 3 g e 6 0 w e < . @ v g i r e 0 r + m r 5 k f k q 4 r 5 r 9 & ^ 5 8 . 1 D e 8 r j 1 h 1 q q u q 3 u r 5 q   * ]   6 q 8 X c 5 s s k h 5 y u k 9 k e 6 + = X g , r ",
"r 0 t 6 t r r 0 . ) X e 0 q ; m p c B m B m f N   + s ; r 0 0 w s g s s k e q r 6 e ; 6 t 6 B : b w 7 s 5 w 6 & 2 M p r r 6 2 w & S , e s r 6 e 8 e , r > / 9 8 q . 6 C e y b j u y   < $ $ X & r 5 ,   > R . q 3 w q $ g u e s e 9 s c u c 9 c r s 6 > + s 5 0 ",
"0 p r 0 e r 6   E X 6 g p 2 @ ; 6 0 g 6 6 2 r t + $ b 2 0 r s 0 g s c s s s q X     @ 2 2 ; c 2 r 0 0 0 0 q 3   < v w y 0 6 6 r & A 6 r k q r 6 , q r > ' , h 3 q   5 M 3 j j q u , 9 9 6 8 y k 5 + $ * , > w 3 , 1 , q X = .   $ X q u k u s u s s s 4 ; k ; w ",
"0 0 y y 7 p . W . t w 6 0 e # 0 g w 6 p r r w p X % c r w s s g p X ; & $ . . K q c r 5 6 5 c 6 y 2 5 y w o   + 3 A r r 4 0 r t $ l , t q 6 s f 8 e , D 5 u q r w   < M r u j h k 5 < > r r k s 8   - Q + - 5 2 5 w y X b B B l s Z l 7 j e s h s s k s 7   w q ",
"4 7 w w 4 o R   w 7 w r w t ; e r 6 s f e g r r   $ s > s s d x s m c c M m X C e , 6 1 + , 2 4 s w 4 y X   % , 6 t r w 6 s s r > c q r w 5 s y , < / e u s f w q X > Z r u 5 k h < * < k h l 8   1 ] O s y y h y y s % M q 5 u r r h r q 5 r s c s r q e 2 = < ",
"  w w 0 X I o 2 6 r r p 6 0 = w r r s 7 e e y s o + b , 6 s s s r 7 k u r 6 . M 6 t 7 5 7 e s 5 : p r     Z c s 4 + r e 5 5 6 s < M 5 6 y r r 7 X j X u 5 s e q r X 8 A 8 u h j q 5 3 1 s r 8   $ ]   s y r k h s e 5 @ K & s g k 6 j l r 2 9 5 q s u e q 5 + X ",
"  ; 0   R X 5 r w w w 4 6 t p 6 q r t s r q s g + , c q s s 0 r u s s u q > l * 6 w w r e e u r e 0 +   G I & 2 r : + 6 4 6 6 t < B 0 6 7 r & + s & $ + X % o   % > 2 V u s j j r O V > k 3   1 ]   r y u l s 8 w q y 2 b 3 c g q u u r h 3 3 s c r 8 7 0 e 2 . ",
"0 & = I X r < w 6 w 0 f 0 r t r 6 e u 6 r 0 0 y @ ; v 3 r w 4 y u y 7 w < c O 3 0 1 s r 0 6 t w e &   L H , y e r w 2 % 4 p g s % g . X     % r >   X o     +       1 k q y y 8 u   K u q   1 ] O r u s r e r O % ; X @ A y s b s j w y 5 5 C q 6 s u e < e + o ",
", ; : + t r 0 t 2 0 r 0 r 6 t t t 5 X   o X + # + $ s y 2 w r s r 8 q 1 b $ 5 u 6 u q 6 e 6 7 s .   U = < 2 0 r t s t w = w r y   A g m A L K     b < r r f s c s c * $ e k k h q   Z 8   - Q X k r u u 3 1 + A Z b Z T q e g r s e r % , , G = g g y 0 p s ;   ",
"w + X % # 7 2 0 0 p d p t r s 0 t ; o , , 2 : : = X k 0 3 6 6 y y r $ b $ , u 7 t 4 < 7 r t r %   K I = 2 0 5 0 e r s 2 , X X   ( 5 5 q y 7 +   s + s s M M 3 3 q e 1 5 6 u k r r   j   1 / O 9 q j s j 5 O P s u e 9 g q 5 7 * & < > C r d , e r 0 0 3 0 0 =   ",
"0 ; 4 2 # ;   X # + : @ + # @ . # & o & & 2 < : o # y 7 y w 4 6 5 > m $ 6 e 9 u r e r s p r 1   M S 2 2 6 5 g 7 y 5 5 f %   , g 4 y 0 y y +   k / X 7 - > q 6 8 y e q 5 w 5   $ .   . * ] O q q 8 g h > . P r , 6 s e k r 3 X s j k A O k e g s r w 6 r 0 0 <   ",
"0 ; 4 < , ;     . X   X X X . X . +   o @ X     X = 7   o   4 > , q   . .   % , + r q e q k : . e e s 0 6 6 6 7 e e r   w X , g 2 0 r 7 ,   A ] 5 $ 2 s w 5 e h > 6 h w q 8 $ X . X $ c $ 8 r r s r r O F 9 e s s r r r 9 2 6 2 5 6 - 6 e s w w 7 : 6 3 0 6 2 + ",
"6 # 4 ; 4 ; 6 4 2 2 2 w , 6 2 2 3 ; 3 6 3 7 2 4 2 :     &                       . 2 5 d r : +   r s 3 6 0 0 r 5 . X   s &   = g   ; ; >   Z / = t $ 1 r q 8 r q r , 9 8 9 e n q j & > k h 5 k y 9 r O C 9 w s f r f < e 2 7 < 6 y y y r t t r < w & 5 4 r % . o ",
"6 X 6 2 # : 6 ; = 2 4 : 3 , 5 2 7 & + 2 < 5 ; = < 3   s r r 0 y g g s 5 r g y s c + < 0 . 6 + @ 5 k r 0 w w r   7 > = 3 5 X :           b ( % q 7 & u 6 r j 9 u r 8 X * , $ > * $   5 V 9 q r k e O P s s j q e q 5 s 7 g r 6 ; 0 5 w s r r r r 2 0 0 2 < n %   ",
"N 2 2 w r r 0 0 4 p g z g b g w 6 r q s e w r r c %   k g 0 g g 9 s g s s s c c 5 4 @ ; , < = . 7 c w s r 7 r o 7 = : 7 ;   c 5 e y s k ) < u k u @ s 8 q q e s 9 h l y y 5 1 9 1 1 w 1 & $ X X + F 5 s s s r k q t w r s s 5 5 : w s k 6 y g 6 p y g ; Z X $   ",
"N . ; < ; ; : 4 o g # @ 5 2 2   Z M 5 % o o X X o 8   s ; s y 7 . g q c e 6 p s y 6 ; o 5 $ % % 0 Z q x 7 q r + , 5 4 =   J . < k k h Z 5 s s 6 + T $ q 8 r u r h 9 y l u h r r < u > , 9 D u C F q l h l r w r r r r r q r = = r 6 f r y 6 7 t g g 6 o M O   Z ",
"; 0 0 = 0 w s 4   M e 3 p r 6 > 5 , ..s v s d c M .   w < 6 2 1 y q 7 7 s s s y r 7 y +         3 S r   7 m s g s c x   r 3 < 3 = 7 o ; & + + X / $ s 5 < u k r y h e 8 k 8 w k 9 r 1 + 3 F r r y k u s j e 7 s q 0 y t r w 4 ; y 2 s s f w 6 e p 6 g & r   K , ",
"@ : 3 0 t 0 6 w X S y w y w = = ; X.$ r 3 s r 5 r @   s < 4 5 w 6 0 0 < r s q s y 0 0 r : , < 0 = ,   ] & p   c , w     r y r c c , q 3 5 3 & $ k s q m s j j k l y 8 j c e 9   $ +     h F r h b r k e s 9 s u 6 0 r s r r 0 = 3 y e 4 4 r s s r 0 r     k G ; ",
"# r 4 p w 0 r 0   N < s d q q = @.o 7 w k s e 6 g =   y 1 < y 6 < r r q r c g r 5 w s 7 s S M Z &   u & r 2 X B y 6 X   s c e 7 ; y , 7 > < 5 $ F e 9 y y 5 k y k 8 j k 6 ,   ' A h l X h F h j l k 6 f s 7 k s 6 y r g 0 e 2 2 0 p 6 0 6 s e 6 s r     B B 2 6 ",
"& ; 0 0 0 0 r r   c r r w > X M + 6 5 r g 6 r e g o   g < 7 q > y 0 t w r q = 7 s r q q k s r w   6 . q 7 7 + M = y   . q 6 6 6 2 6 % 3 r < 5 % M y h k y 3 6 5 r 8 y e 3   ,.8 u $ A $ r C q s r y s 4 s u y 7 q r r y r r r s 4 0 p < t p e e 7     G S @ 2 6 ",
"  = + 6 6 p e . G o 6 : 6 + B r 2 r w u t s 6 w e + . s < : # 0 y 2 s s y + M 6 w q s e u s k   ] > > & 6 k = B q 7 $   5   %   X   . X X       $ y r q r r < q 8 h s q   +.8 y r , C . r P y l y u k r 2 9 e e f r q s r g 0 4 t < s 6 r g y 5     S c X 0 r 0 ",
"@.6 t < 2 e + B   < 0 . + X @ > 5 q s r w 7 s k 0   u ]   2 2 0 s s s 0 g # c y r u q e e u   ..% 6 r % & r & K + >     , 6 q > 5 6 6 = & 6 1 3 1 , + X .       +   + . M O =   % + & . r R r y q h c y e r s 5 s s r s g p r r t   M q p y 7 7 X & 6 , r r i   ",
"# i 6 p 6 < G X 2 5 2 c 5 2 2 < 9 k f w e e g 2   r E   0 t s 6 s r e r 6 @ c 0 k r 5 9 5   #.% 6 e r 4 ,   %   & X   K s k c C k m k A M V % - c + + % &                   X   . $   $ q V e r h k h r r s u s r l 0 7 s s f w 0   M w s r 0 <   X # , 6 r   } ",
"< 5 g g y # S 3 0 w r 6 < 7 > q 5 q r s 7 s 3   q ( X 4 u e r y 0 r r t t o p 6 r r r s   X.& 7 s h k w r , r 4 q > y 2 y 4 6 8 e 7 5 6 9 6 s ; j w l k M k s k 8 w 5 8 r y b k l m k b $ $ q l k s r h u u e 7 w 7 7 k r t y y y o A 6 6 q ,   % w + % X    .. ",
"2 0 p 0 w . c 3 r e q w 7 < > & - m 5 & > &   r /   r u s t 0 r y g s z s X b f y 6 e   .., 7 7 k s 7 5 q l l j k   5 c 6 r s u r w r u w y y h X c l 5 w q , 1 > O D F F l 1 5 8 3 h 2 X $ & o , . o X X & &   . +   % & +   = + X   @   .   = , 2 4 X # g = 4 ",
"r r p z 0   v 0 r 6 q 3 <           X X     s ~ + 6 q r 0 e s y 0 6 s z c + s g r < , 5 > s q e 3 9 w w h h + L ,   s u q w s r e 5 8 5 q h q s & k < 1 8 y r > $ J y l c r s * & - , >   ,   1 6 1 , % 5 , 4 , > % & & % + ; & & & & 4 - - + - > ; r w 4 = : 6 ",
"p s s y r . N 7 < w q w   & 5 r 5 9 q 6 e o k 1 q q q s r g s q s y s c g % g q 7 w < y 2 0 7 s q w q s 9 $ K u % + y s r 8 h u s 3 3 s f k s j . V q w , q 1 O F k l u 8 b y M V D l M 5 * X y C Z m c B B l m Z c m b m B k r m m g t k s $ > 3 6 6 0 0 ; @ 0 ",
"s 0 y 6 0 X M $ > < 6   = I s y s M Z > >   r % 6 e q e 6 0 t g z s r p u + s y s , & r   % + $ , - % O O D 6 e +   s s , s u e q k q q k y s h O u 1 r r , O C 8 8 h l j u h r l s l u 1 %   c s 3 1 % 5 , 5 4 2 q 7 2 5 5 % , < 4 , :   & * 3 s r 0 6 g 0 : = ",
": o . + + X   X   +   = I X e 7 r 7 6 0 .   r : 6 4 6 r 7 6 0 e s s p s g o p 0 + , > v w M M B N S M c T r k e < X s m w c e r k r r h s s u q O m e s e e M 5 q r l h s s 9 l h V q $ k X   u M s 9 r y h r 5 s q 0 e 0 4 e y 0 s 0 r < z = 6 0 w 2 e t r w 6 ",
"2 4 4 4 < : 3 5 3 6   m & r w y 0 2 s q X   s   6 q 0 5 s t f t r s d g d . $   M @ , , 3 5 y 6 6 2 w s q u s r = o k M y y j r s q s f k u r X M * , r s 5 c y 8 l j y b s y k V l * V 4 o . 4 l r f q q h 5 q r t k 5 y t r y p 5 y e o w = e 6 g s 2 s s r t ",
": # : = = X o = ,   J Z s w 0 r s w 0 s     s m ; w 5 w s e e p s p r g % I x B   g 5 = > 0 0 4 w s g y l r q u > . k b r y j s l k s k f u > Z X 8 r h q 9 y j h r r r 9 h s s l * b q j r 6 + $ s s s s w 3 w w r q s r 0 w s w w s 6 o s < t r t 0 p 0 f s p ",
"= 2 4 < = X = =   I Z , s r y 5 q 4 e r     u ; 4 5 r 0 6 t 6 w r i 6   R X p : 2 5 < p y 3 . o   . +   % c s 9 + % M Z w r 8 j j s u r u ; D + r 5 k u y r 8 r y h q s h y l r $ C y h 9 r r 3 = + r s < y u w s e p w 4 0 y u t r s 0 2 o r s w p 0 g p p w s ",
"o : : = X <     L Z p w p 6 0 r 5 2 7 & 7   w % p < 4 r r 0 0 s y y   L $ e q > p 0 6 0 s   I F L S C m L < 5 s 5 = b s y w u c k k k q - M $ s q k s j u u j k s k q 5 r r r y > u r r 9 s q $ 2 2 < q q d r s y s 7 0 s s w s 0 X ; @ . 6 6 6 6 y r g f g 0 g ",
"= ; 2 @ # .   R b 0 0 w 0 p r 6 0 , + K     u < r 0 0 2 0 s 0 y r + W + q w 7 s r 3 y r y X S y s q r y e 7 r e <   s k q y r b k s r q X c , y q c u k k u r e X % $ V 8 r r q * 9 8 q r s w X < < , < 6 5 w a y s 7 7 r r w r + ) c b m 2 2 e r 0 d 0 r g r t ",
"X 6 , = =   I d p r r d 4 i 0 < w - 9 .     5 , 6 r 0 4 w 0 w r o L $ s 6 0 0 s 6 4 g r 2 o B 7 e e r s y e q h 1 . r k h q w q y u 0 X / k 5 g r k r k j r k   &.T F 1 q r h k $ q 9 l q h r O w 7 , = ; e c r w g d s s g u + @.X e y 6 ; 6 p w z y g p l w g ",
". 5 # 2 X E % A y : 6 w 4 w r 6 w & 3 @     4 , r 0 6 o c 4 w + W   0 y 4 0 3 y t p w r 6 & c u s j y l 5 e k r r   s n u q h s e q X o.* s 7 7 j u s h u w   >., = r y 8 h h 5 $ y e h q q 1 O 7 5 < 5 3 = r p 6 5 7 0 l s + #.+ l u s 6 < w 6 p g x s g r p r ",
"X = @ . I Z   S , y w 0 2 r = 3 6 % 6 4     w 6 5 0 0 < 2 2 + U   0 0 w 0 0 6 y r r 0 f s o K w s l s y < w l x * . s b w q h k 9 . #.$ u s y y r q y r e   +.$ q k x k w 1 q r s 5 l e u e e X e 4 6 q 2 > = s r s y r y .  .X r 4 6 2 , 0 4 r 6 0 s 0 p 0 y p ",
"  o   < w 2 . Z 0 s p 4 y , 5 2 6 0 7 +   0 U = 6 r 0 < 0 o G . , r 6 r p w 4 0 2 w p y s X L 6 c u s = 5 s s e o . s w q q 6 8 X #.$ s r w q l , r e k X >.8 r h s s 3 u u 5 < < 9 j u q u f j T Z L F M c = 5 p r r s X o.+ 6 s 6 6 w r w w r y 2 7 r s 6 s e ",
"o = = 2 g 7 o x s 7 ; + & c X 3 2 7 o   2 E # 0 i 6 r o d i   6 0 p 6 f s s r w w 0 p s s ; Z 6 r s q w a y y y & + h r 8 r s O O.$ s 5 e s r e 1 e u X >.* k h y l r h s s h s s r r 9 9 1 h j u f b k s 0 y : 5 d w   O.  w s r r r 6 6 0 , p g t r e ; y g 2 ",
"o = = = r 7   J 7 + , < & z 3 p 6 &   < , o # 0 0 = + v 0 0 6 6 r 0 r p p 0 6 r e y , 0 q , B q q 6 5 3 g q l y = X k c 6 &   ..$ l 6 j k q w , 9 s < O.> q h r e s y 5 r h s k 6 j u 6 u u u j r b M g f 7 7 s + < O X.X y u , : p g s p r p 0 6 g 7 4 6 s 0 s ",
"X + . % k 6   O @ , , q + S 2 p 4     6 < : 0 0 0 @ k 2 0 6 r 6 p w 0 4 p w 6 g s p 6 g e : K y 5 r e 7 s s r s #   w r s M 3 * r 8 r h u 9 y s k q , j 3 r l k s 9 5 q k j u j 6 e s 9 + M q s r m k u u 7 0 g X o A X 0 w q r 6 p p s r s 0 4 s < w . @ X #   ",
".   . > r . Z 3 5 < y 7 + M < 6 5 +   w = . = 4   5   + o     . : 4 : 6 y 6 s p r 2 e p 5 q * r e 9 7 j l e h l < . a r 9 q q < r k k e q s k s 8 8 e 3 5 k h c k r h 9 r s 5 9 q j j u - n l r r 7 u r y y w 0 o = q   X X X X   . = . . . . & & >   +         ",
"r 6 r &   b O i 5 e e 0 + k : r y     o .         X X   o   . +     X = 7 y r 6 s r 0 6   5 e : f q s k s e y r 2 . y k y $ _ + y s l q s l c s s s e u r y s r l l l e s y s > X   & . 1 b s 9 q k 6 7 u 7 e 7   o   X . @   . .     +   . X .   X , r 0 0 5 w ",
"3 , # . < % 0 > 7 6 0 2 @ N 0 p 2   & r 6 : 4 3 , : = 2 0 5 5 0 r 6 w 6 : 6 4 0 s 0 6 w   s 2 5 r e 6 w s s f e o   s x $ / $ r s k u r k k y s l s h 9 r k u h y l j 9 y r 6 $ j k e f r s r r q l s q s y q     k r k m B M c s c N s g c c c s p / > 6   c , ",
"e 7 X K X . p ; 0 : 0 4 = B 6 < . = L i s w 0 4 w w z z z z m v c z < # o = 4 = ; X X X # r 6 0 2 s s 5 s k 6 s X   e 1 / X d l c h s y e s e s q w e q r j r 8 9 h u u f e , j h e 9 y r r 5 . X % < x < q     r ; q 3 w 6 6 5 r 5 5 5 = 9 : ; 4 5 r 0 0 X b 0 ",
"+ . <     + 6 5 3 0 0 7 r : 3   < L o = = < @   U 4 4 w p 4 4 4 w 0 X d d + X r w B c B z     o r 0 y r s 5 7 r -   , $ 3 k r y r w 9 k g t 0 c s r h h 5 k r + b h 8 j f * y e k y s y q u   F Z M M X < $ $ . s 9 e r s s y w 5 5 7 6 6 2 5 u q 9 f q .   o @ ",
"X % .     + & o : 4 < = < =   : w 0 p 0 0 i d N 0 0 w w 4 p 0 p 0 6 0 w 2 4 = o q , , 7   U 0 g # r 0 7 r q r t + . 9 * 8 l q k r 6 r s f y c f q 5 y r u s r + r u h h $ l f k y r s e 9 1   u 4 s 9 - e e &   6 s r r e e 5 7 e 0 7 > r w r y q q r =   + + @ ",
"p s s s k c o     .     .   = E o < = : 2 < X z 0 0 4 0 w 0 p 0 i 0 4 2 i 0 0 2 3 + .   3   o o X : . @   & . $   X q + w r 9 s r 6 c k f k 7 u w r y 6 j r u * l 9 u r = r u j e 8 9 y r   P u u e e $ 7 w > . y               o $       .         X   B r v k ",
"5 < ; 3 0 2   i r r 0 i r p U . 2 4 i 0 0 i = z : 0 w z 0 0 0 0 r p < 0 0 2 4 0 : X @   o X X X X X % $     @ + % . s & y s k l 9 s k s r s s 9 u s 6 q 9 h q > u e 4 e & 5 1 3 u s r 8 . y .   +   X T $ r     + - < , $ , = > , > & < ; 5 > ; % % $ a & - Z 5 ",
"r e 0 s 6 0 + r d z c s m s X 4 < 0 0 w 4 0 @ m 4 w 0 4 0 w w w 0 6 2 6 4 6 4 4 r 0 < q c g x v v m s k l l w r f b , 2 , r s 9 q k s f l r r s l h r 6 u u 8 * 8 q h r X 6 9 s 1 > 8 * 3 1 u r w 7 s $ s O   L y r c r d N 7 m M M b k c c b k n r < < e > K w ",
"0 r 6 r y : . 2 z 0 r 6 i i 2 < 0 p i 0 0 0 = m 0 0 4 0 0 i i i w 4 0 0 0 w 0 2 4 ,   B y 6 p < ; 0   B 4 > + = 3 5   3 < k x - s u u u 9 k e u q u s h j h q % 8 9 8 O C 9 2 , 8 Z l 3 1 y j 9 q e 9 6 X   L C , 7 2 2 q 3 e 5 5 0 w t e 5 < 4 5 % o , > = M 6 ",
"0 6 r y r 0   0 B w p d 6 r 4 r 0 0 0 0 z 0 = m 4 4 0 0 0 i i i i w 2 w 6 6 r 0 6 0   x p 6 s 0 y r   S r 6 k q 7   } 5 , < 3 e r j q 6 s s k k q u s r j + + <   .   % & +     $ X . %   .   + +         R V 3 7 3 s k s q 0 7 6 y 5 5 7 , q 6 $ . = = : = B , ",
"p 0 w 0 w w . t s 0 4 0 i 4 4 4 0 0 0 0 0 i w = 0 : 0 i i 0 0 0 4 0 6 4 0 0 p p . g   q o . + r 4 e + B q y 0 r   ..q j s > % y y - q r s l h w q u j j O { 1     & X         % %     .     . .     $   Y K > k s q 6 r y 7 q d 6 < 6 + < , & & X > 5 5 3 : B w ",
"p 6 r y 6 r 4 & : 0 0 p 0 4 r 0 4 0 4 0 p 0 0 0 @ 0 i p w 0 0 0 w 0 0 0 : X     @ q = G G n w 7 r e X M 7 r 5 6 $ k k w q   $ k r e 9 k b y r s s s j X /     V s f 8 l C r M y 5 1 u j k V m M b c M   r q y 6 7 r f r g w s r u c 4 w 9 q 6 3 & 5 q w 2 , g 6 ",
"0 0 g 6 6 s 6 4 o + 2 0 w 4 0 0 4 < 4 w 0 0 w + < 0 0 0 w w i 0 4 0 w 2 % p l m r 2 2 0 2 i r w 6 % < y @ r u y X s r 6 3   , u & q u w s s w l u y * /     C ` 1 * F 4 > 3 8 c F r 5 > < 9 , 1 q 6   X r 8 k u q , r 9 r , e s s s 5 w ; , X $ < , r , 0 2 : p ",
"0 s e s p q 6 7 2 # : 5 2 , 6 < 0 0 2 0 0 0 4 X : : 4 0 w 0 p w i i 4 @ r 5 5 , + c 6 d s 0 r c r 7 = = e s 6 7 - w 6 w   & * b r < 8 r l w u s s O '     J ] * k , Z & s q j l u q 8 e e r s s k k X X q u w s < e e e 0 0 r s k q s X v r 5 ; 7 5 , > 7 0 0 y ",
"0 6 s 2 q t 0 < & . y s 2 5 i 0 0 p w 4 : = = : = = 0 0 w w 0 w r & # p 0 ; 6 , . N 0 r 0 y r g e 7 q r e   o X + $ =   Q . O Z s w , s r r a y . /     V ` & n j 1 V < u u j r 8 l 1 1 9 l u u e r y 1 % 5 e r q , s 6 r u e g s 0 O K 6 + 2 = 6 7 5 7 w s 7 s ",
"t 6 e 0 q 6 6 7 X   5 0 2 i i 3 r p 6 2 : = 4 = 0 0 0 0 2 0 0 0 2 & r 4 w 6 0 4 X c r i c y t 7 g q q e u g s . = s M P <   & l 6 s y 8 5 ; q O Q     c ` 1 c h 9 1 k 1 b u j 5 e u r j h 9 h j k b y s , ; X         + X & . & + % + X 3 # 6 < r 4 5 0 s 7 s 0 ",
"4 < 6 y r 5 p o   M X X 4 0 i w 6 < 5 6 o - = 4 i 0 = = @ X = : O e 0 w p w r < @ M 0 r s r w q 7 r u w 7 q 7 % = c , 3 = o * Z # > O % O % $ A     K ( 3 u s 8 y 5 j < u l 8 5 j y l s n h y s s s w u e &     $ % X . X ; %   + &   X > = A w 6 6 0 , 3 ; 7 r ",
"e r e + 7 g 0 X . 0 X 6 + X   . X .     =   X .   X X = i w 4 s 4 7 p r w 0 w g # B 6 s p g s y r e r q q s 3 . = k - r y + =     X             X V Q 1 q u w s r   #.. u b 8 h s s h u c M 5 5 > q 9 s j + $ s c c 7 k M g k & 9 w l c 6 = s r y 0 6 0 x s s g ",
"0 r ,   B 0 0 + X 4   +                   X       .   o 0 = < : q r s q w 6 r p + N 4 p e g r r s s s y g t s X 2 s , r O   b w a q k j s r , 8 c / * 5 r 9 h <   ..3 j r r y h h l r k k l s . S 8 k u r   X k > q 6 6 6 7 X B 7 6 6 r s r , l g 5 5 c s g g f ",
"q t l + m 6 r .   o 6 r 0 s g 0 r t 4 p 0 0 p 4 p s p X + 0 2 4 q t w 7 6 e r p ; N 6 p s r d s k t g s q p l o : Z % o   L M M k N C V u c Z 1 , < q r r h r   *.- e s u 5 s q h r h q h l 8 $ 1 k 9 w s %   q > w s s r X S r y e s 5 9 6 > < > q e r t r r r ",
"+ . + + B 6 3   > , H X : : 4 2 # , : 4 2 = = : 0 2 #   o X 0 4 w 7 q 0 < s l t + S 0 r p r w 6 k s u r r 6 r X 6 m     P D 6 9 y r s r e u 9 w s l 8 < 9 q   =., j s h 9 h b j y y h k k q & > u u k w 6 X X l > s u 2 X F < 6 q 6 q y f q q > = 7 y 0 t k y   ",
"c s f g 1 6   ; s e . 5 2 0 r & 6 , 4 4 : 6 i 2 0 r 2 w 6   < 0 6 e t e t s t y . E 6 f r t 6 p g 7 e s s w s + 1 e   q M 5 q 5 w s s k e r r s < ; & 5 $ 3 *.% s c h r 8 j y M l s e s h h > 3 5 u r > O   q ] > r < O K w s 6 r y s s 6 e e t = , y y u 6   K ",
"6 w s X ; : . ; g , 5 w 6 0 = = ; 6 0 w 6 4 0 6 i 0 4 0 +   4 i 7 i 4 6 p q 5   E 2 s 7 q 6 w r u g r t 8 r 5   < r   9 c y e y u j f u q 5 s y b e = q m r < s s w j r u r l k q a y n l w ; 2 q r u - . < G X r r X K 6 7 p r w s y g y r w e < ; & , :   / 8 ",
"0 7 o   .     1 m < y 7 i + > - 0 : = 0 4 w 6 0 0 0 0 d +   s 0 7 : e p p 5 # z 4 5 e 6 t t 0 f k k l e e 4 X V f q   u < 5 k k q s 6 6 e 8 q s k 5 & b 1 r u r r y u k f e k r h l k x y 7 % ] 8 j &   3 o , < &   K , q y e e w r s r p e t c y s & = v E q 1 ",
"o .   M r 0 t = = 0 7 2 o 2 3 6 w 0 4 0 i 0 6 r 0 4 p r = . 6 . 6 0 p t t 4 & M 7 q k s g 7 f g s 9 u r r O K X   t X >   - e r r r 3 e 6 k s k y y % m 9 < u j r l k j s q q j h s h d 5 1 . M = %   1 & & ; , k G r r r s y y s u e y y s 0 0 r 7 u # &     . ",
"+ . s t 0 g w + @ #   + M @ 2 3 0 0 0 i w : 0 4 2 6 d 0 #   s r : 7 w 4 0 4 ; f 6 e g k r g k c e u u e > F   s X . % 0 6 + & q 9 6 6 k s l e b r j > Z q k 9 5 9 s k j h q u q l r 6 O   . &   X   3 M 5 . ; e 2 7 y r w r w g y y e k g s s f u g 5 6 & X + X ",
"g   r a 0 4 r 0 @ . , s 6 = # 4 6 r s 6 w 0 # 0 0 r y e =   0 p ; 4 : e 5 6 2 g 6 f k 0 g g e 5 q u q $ Y O r q   O A & 3 + > , 9 r f s k y j k y q & k q 6 5 q e 9 k q y k k q s -   % < > % $ . . c   + ; : g 6 0 r r r s g p d k k s g f s r 0 g 0 7 2 c s l ",
"X + y p w 2 6 4   c o + 0 6 : 6 p 0 6 0 4 4 w w 4 0 s 4 X   4 .   g 4 2 5 w 5 b , p e 7 u t u r r k 9 e > y 8   O E 8 8 e q < 5 3 s l x s e s 7 w $ j 6 5 q s q q 3 r k s h k l 8   c c c m f f X ; y , + : 5 s 4 r 7 r s s g s s y s s d y w e r 7 r 5 : 6 3 ; ",
"=   k i 0 2 3 0 4 < 4 ; = 6 : p 6 t 0 4 g w p 0 g w e y     p b c @ y e 0 s 2 k 7 6 f 4 s 9 e u e s r 1 5 r   $ ] X l 6 q y s r = > k y s w 9 y * l e r r c y 5 u 5 6 5 r s s 1   Z ! 1 < , % < . < l o 3 = ; g = r p 6 s s s 0 r y 5 s g r q y c e e 6 5 < y r ",
"2 X r s 4 r 6 6 6 0 2 ; o ; . p   + + < = o 0 s w 6 7   S   6 g 0 s 6 < y s % g : q r t 9 s e f j r 9 * r   , / O w s u r r k s s < 2 r 5 c 6 $ k 1 h q y u j 9 r s r e 9 u 3   M ..% s 6 s 0 5 % , k ; : 3 5 g 2 t 6 7 s q 0 s f r 7 d s 5 w g 7 g 5 r = 6 p s ",
":   y r 0 : 0 r 0 0 ; g 0 .               X r t r 4   =.    3 g c 0 2 w q e & s , 9 r s j s l r l 9 e ,   $ Q X 2 & s , e k r l k s 3 2 e y $ h 9 q 2 s r f e 5 s u y , 5 5   c ..5 s k r u 7 s + & M + 3 ; : 2 s w 0 y 1 e k k w q r y q u k g s u   E = w r k ",
"2   y r r 6 r 3 5 y # M 2   6 r t g r w s s # 6 4   O.3 %   v s g 0 6 g 5 5 , c 4 r e r s k r r w 3 . , O Z r q 6 1 k 5 r s s s k s c < % % y = y e f u q 6 r k 9 u q u 1   M ] 9 u s u r q 5 q   4 b + : o 2 = % < r e r r t 7 7 s e f s 9 , u s s & B , q 6 7 ",
"X . w w 5 : 4 2 5 0 + b <   q 7 s 0 p y w 5 : X o O.: 6     p g y 2 g r 9 5 e 6 6 6 u s y u 5 2 w   , $ W . < . 5 q r y 4 1 6 s s c c q + . , 3 s k l s w e u s k h 9 &   l r 3 b 6 e u f g r w X < x + + : ; = ; ; 5 r s l w q w y r s s q 7 y e w @ J e 5 r s ",
"% X s 7 2 6 0 3 r 3 & B 7   w q g p s s t l g 0 + : 6 : o   r g w s s f e e s s + 2 5 e 4 e u u $ 1 $ ]   a = > =   > 2 4 s s y c k 9 $ 6 , O s s r s r e > s s k u &   j A F e f y e k s s k 5 @ ; y & ; 6 : 0 0 5 6 7 r t s r u q s u u y r b u s = S q 7 r q ",
"&   s r r 6 5 5 w < & y 7 $ 6 M = # 0 ; 4 , 6 7 =   y 7 @ . y g 5 s k y 7 r k y & 6 X . X 5 4 7   X E   , s 7 3 < b > r < 9 q q e 5 * u 7 r & > q s 6 s 5 6 s l y 1   n { 8 r 5 e r 9 u s q 7 q   + k y * X 5 2 = 6 5 4 + .   + > g c g 7 g k e k 6 X S e 2 y r ",
">   6 : q q w 0 q 9 > 6 & Z + @ 6 y 7 s r s 5 t + X g ; +   M f s s y u s s w s X # + s s , 7   O / X ; 7 r 5 2 m X r e r 9 r q 5 $ u < e 5 e 1 & q k 3 q u q s 5   k ] < l l r 1 ; r q y s u 7 X > q + s q w 7 r 4 0 < r m k r b 2 r e u c 7 s s < X M 7 r u c ",
">   q u e w 5 0 w 5 = e g X &   $ 4 s r e y q r   + e 6 ,   c s l r q 6 6 6 y q # @ < m 5 y X $ 6 O % , 2 = & A $ q s 5 7 y w , O u e r f r k u + $   X     $ .   V X.% 9 s 6 6 7     , > + $ @ & - n 3 0 6 q 8 0 0 r 6 c q q 7 5 2 7 l k r b k e   % M 7 e f s ",
", . , g 1 6 r 2 3 * + y s r 6 e : 2 2 y y j r 4 . $ c ; X   g c 8 q r r y r 6 u . 6 3 N 2   O Q .   2 + < q c $ 7 e 7 y s q 7 , m q e r r s r 6 0           X   k { 5 3 e e u 9 % j u 6 u t q r   > m ; q 7 r g r d p 0 d & q e r s k s &   +     L s = r e f l ",
"6 o y y 7 5 r 6 . . 5 e q 9 s 7 k , X 0 w u > 2   X n 5 =   y q k r e l 0 7 3 > q N e M   $ Q   X 9 q 7 r q 1 y y k w 9 s r r 3 & e f r w r s 6 $ . ; c s h s M ] 3 , - 5 < 5 $ k y r 9 0 0 u q < ; f % 0 7 w 6 g c s r > y y s k s r % 5 9 > < >.6 r 8 < w k r ",
"    /   @ & ; + b 2 6 r , , < q : e ; = s r > e o   k 3 +   y u r e c r e r % e * 7 . X $ ! X 5 y e w s y w , 6 s r w > w i s 2 O m 5 e 2 r q 7 3   w k , 1 3 r - & M y s k k b 4 r u > g p ; 6 k : ; y y 2 r s s d s s   A e y y r s . 5 6 5 *.$ r 7 r s , y r ",
"o 5 X #.w r 7 . f e 6 + 6 3 q q q 7     r e k e X = k 2     s y q s u 3 , 2   Z 6 & & $ /   5 k y y s s r d y 3 r r q r d r 2 r + k & 5 5 w < 6 6 . q b 4 y s u % D O = 6 & 5 q 6   O X +   &     > = , 6 ; & = , - q , o G 5 r q e s $ < 6 ;.* g e e r k e 3 $ ",
"  e Z > r s 2 X s g ; u > % + e s 7     k 6 s j X o u 6 +   b k w 7 7 6 6 2 $ r w   % / O > 6 6 < s y ; S g d g r d 2 s 7 w 5 0   9 3 e e 4 , l e X , e r s q $ D O r r q r f u $ F M S K B m F F c 7 2 & n c m q k c = , o 2 5 u 7 7 $ & -.* r r r j h 6 r h u ",
"% w w 4 g 5 s o 3 ; X r   q r 2 q 5 O   s < s u   + k , X @ s g r 7 s s y q $ m   & E . i 3 s 7 s z 7 < Z r g y y r p g w y 2   #.X = 5 ; , 6 s < X 5 M q s 3 6 - x k k l j h y   { y c 9 r 5 u g 2 0 e , , , , 7 7 & + 5 7 3 r q r 9 . &.& f s s s j r r u 9 & ",
"  s l 5 3 3 r 2 $ c % 6 5 y r 7 5 , .   l 3 h k   . k 2 o   e   . ; 9 r s 0 . $ & v < , s r 5 0 0 y 0 % A 6 g s s r 6 y 3 7 . ] + r u 0 r e s t e   1 l q q q 3 y y r h k q w   #.5 s w s u q s e 0 0 e e $ 7 r k w 5 $ q 3 , q w u   *.% w y s k y h u 5 y r > ",
"  s B 8 q 5 w < % 3 X w q 6 q r s r X   s e e O   M X .     % @ $ & ; & X +   + Q   7 2 s r y r s r g ; K r r 7 s r r 0 s X / + u w 0 s 0 w 7 y 4 X 1 c r r 6 5 3 q e j u y > n 3 s 7 y s j s e e g r y 7 r 2 5 k w X o.f r c f q   .., k h y 9 w y 5 9 e j r X ",
"  s n & 6 1 e y > q X k < 9 y 6 s r X . c , X   L e $ & & b m k m N ; + .   . G + . s 7 7 r 2 r 7 k 0 . F s k q y 6 0 y 8   s y 4 y w f s q ; : <   5 M r 9 w 5 , 6 k u r 9 > h , r l b k s s 7 s 6 r t s r 7 < > O o.O r e r s y O , 3 u r u 9 y e u k l l j & ",
"  g M > <   . . %   X + + X o X X & +   s     / M e r M   r c 3 < > 5 w y X 0 N 5 $ k q 6 f s q 0 4 >   b X X q 7 w r 7 %   k 6 r r y t y 7 q 2 ,   3 m 7 e e 2 1 3 r , 8 1 * j 5 e b l 6 r r w e 6 r s l s r q % > . s g y s e y 9 & s s q y u h r j u r r l + ",
"  s s 3               . .       .     X . X F M r j k &   k s s 2 6 , e = . 6 s w X b 0 r 6 5 y g q 4 X Z m F & = w 7   s s X w p s v x s r 5 < 3   < c e j r 7 8 u 5 3 5 y 7 c 5 k l y q k y 5 4 w p r g g 7 O Z = @ s w r s k 6 X q r r u q h j w l l u s k X ",
"  2 r     M w r y q q r s r w q s 3 6 - k 9 & e j j s 2   r r 6 7 r w r =   , 4 r o M 6 6 e s s r , X K 9 u e , 2 %   ) $ % 5 r r k y k u f 2 q   O 6 s 6 r r 1 % r w r q k q u 9 s d k r y s s y y e s s 6 X ..X 3 , 4 s s r w w   3 r h u q e u r y c k s 5 O ",
"        W   o.w 3 s   S 5 7 & > < >   2 j 6 1 9 r k r >   7 b r w d s 2     2 b 5 ; s e r s e e ; . L 6 q q 4 5 > r Q : 5 7 7 7 =   = = ; ; &   $.X 6 c , > > q < s 5 s j c 3 c $ = , $ , O O r r c g s s O o.X q y y = 3 s r r 5   5 , w c s q s s k u r < r   ",
"r 6 6 k   #.q g 5 w   t 5 ; & r 6 h s 2 % 9 r e q f <   9 X.& s 0 w q X c   , p 7 3 5 0 6 r 2 q   L 0 g w p 0 s > s 6 r r 3 y ; % K S Z S l S ..=   q c 7 7 e > 9 r s q w r X Z F C C P K Z Z 6 k s s e + ( O 3 q r w s 2 < q q 9   6 e 6 2 q u 9 u s y w q 5   ",
"! X O + | $ w r r 5   r 6 g 0 s s s r s + + 5 3 2 =   3 ( $ u f 7 5 X c 5   : v 4 e + c 2 0 5 X F 2 6 7 s e f u 4 e 2 p y y u q 0 2 0 7 & > < 5 3   r Z 2 j q y s ; r s r . &.& 2 > e r 6 6 6 q , q 2 7 c $ 6 q r r y s u 5 < s e X 9 , 7 q s y e 7 r 9 5 3   b ",
"$   @ <         .   / , e e g k s r j e 7 o = . +   1 '   7 6 2 < 5 X x 8   5 d y y o d 2 2 X F ; y 6 r s f r s < b 6 5 4 s s q 7 w s q r q q > r   q N 9 k w u y 8 8 r . -.$ u r h u l l u e r s 3 8 y y 3 q q u s r h g r + >   ^ 6 < & , q r y 5 q > %   n J ",
"X O k g k M A Z s K X s r w w g r 7 y e ; ,   7 $ 6 4 ; 5 q e q 7 w   M & . < c 0 i + 0   X Z & e 0 s g 0 s k s 6 s 6 2 d s w y w g o y 8 3 q q 7   7 Z r u w 6 e 3 , + >.X 1 8 h k r s y q k s q u q q l , s 3 s s k s s s 9   X j s 6 f 7 q 7 e , + *   l O 3 ",
"& > > 2 6 5 , e > 0 s r p 6 r 0 r y w 7   s   5 f k l 6 , 6 e q q w % v = X 6 c 0 : X > 6 X , 7 w r q g s f s s w c < r w f k < k w e & > 5 u 6 s X 9 m 9 q q r s ,   *.X e q 7 r s s k k s s r s s y 8 y < r 5 y l j k s w . Z & > 2 r r 5 5 y = X 3   x Q o . ",
"X X g % 7 6 u r y s y e e s 6 p y s e   ..    q ; 0 6 0 q 6 , ; # , . x 4   : N 0 . +   X . : 5 e e g s k 9 f k % E < q g s q s q q w < 9 5 q 6 ; o < Z y > 5 7 X I ] X 2 4 q f k s s k k j 7 s h e e r u 5 q q r r k r y   Q 8 s $ 2 y 2 q u 9 s -   k A . X X ",
"Z M & + r 3 s f u u e s s 6 y 6 w r   } & .   e + < 6 7 : 2 M f v s N 7 0   0 x   E i 6 w x 3 = = 6 r 0 q 5 s > S % k r r s g c 3 5 w 9 2 e ; q y r > 2   X     M         . t 5 r 9 k r y s s n r r w q s 7 q $ , , & 5   Q 6 8 > + r f q q 6 r >   M s r Z Z Z ",
"2 5   G 6 s g s q 7 w k 6 e y u 3   o., u     9 < 7 r r 6 g 4 < = 7 6 4 4   , o #.X 0 r s s 3   1 0 , t r e 9 L $ s y l r s r 0 k q 3 = , u 6 3 6 w w O     O     . X .     : 7 k s s k s y 7 0 y u k j u s X j M l q u Q r 9 r <   5 s e s s 1   V ! - 7 w 6 , ",
"0 w + F s 3 e u 7 6 r y y r r e   @.; r w . o 6 : 0 0 r r r r s r 6 i 6 6 # @ g o r 4 p p 0 6 & ; < 2 4 7 6 r < l r y x y w s k e 7 1 & y w r 3 6 , +   V l n l s e k s s r % > s k r y y u 5 h w y g k e s s 7 3 5 > > 6 w 5 y 9 X 5 M r r ,   c J > s 6 6 q s ",
"5   M y s r 5 q w 0 2 7 y r w   o.X s r <     g 2 w p 0 g 0 0 0 r 0 r 0 6 X = o ; 6 2 r 6 r 6 X 4 r 0 g q k s 6 k j r s r q 8 s e e 6 5 e q q 8 j 9   n w 9 & - 3 5 = $ 2 1 2 # & r r r k 5 r r y j s b b s 6 q y 7 e r , u q s e . e Z 8 5   M / & 7 s r q l 5 ",
"$ A 9 s w y s , 5 0 0 p w 0   @.@ 2 0 0 ;     g 2 e 6 r p p 0 0 p p 0 r p # 0 ; # r 3 r 6 2 6 > ; r r s q 7 u 5 e 3 s s u w q s u q o q e 9 l s %   Z ! > s < w 9 s q < 6 t g s e % 3 r r u l s s k r s r r s r u r s s 9 q r c r . < s &   b / % e r 7 k u q 3 ",
"S 3 y 7 q r y r : . o .   . } , 6 5 6 0 3 =   g ; r s g i w 2 4 4 g s 0 < 0 : r # X < + # + . B 6 e f y 5 e e s w r s r q s e 9 q 9 < r e f r X   J ' > e 8 u e k r 6 e e g 7 q e % .   X +       -   % X o & =   6 + = X   $ & % X , +   b ` X r y e r s y 6 $ ",
"6 u s s c k 0 e . w 0 y p g = 6 0 0 6 0 4 ; # 6 < 6 w w w 0 6 w p 0 r 6 0 2 6 < 2 o . X = @ M : 7 y f t r k e y r l k 7 6 r 6 6 u % E + q ; %   T R > 8 q w 9 y q s 8 s e s u k y u =           .   .     + .   +   X   X   .   +   $ X k ( , q k u s q r 5 $ V ",
"e r w k s g 6 5   0 s y i < 6 6 r 0 : 2 0 w = . : p r p y s < = : 6 p w w : 2 5 #   % @ : 2 r 0 7 s f j s s w u s r q q r t g s % F   < r X   Z T $ 9 r 6 q 8 s e y y 6 5 k s u r 6 r s s r c c k l b M j m k m k q f r k 6 k h k O 7 f ] 1 q e r e l r 3 X C 8 ",
"s r 6 t w s 2 s 2 : s 0 6 3 r 3 0 < : < r 6 2 6 + : i w 0 & : ; = # ; = . X + = Z   , g 6 3 : 5 7 s k s r r s j y s r y e y , . A X 7 ; X   M R , u y w w s j q r 9 e r r q s q e w 7 q 5 < 7 5 w y 9 6 3 r 5 5 2 u , 6 1 9 < 5 $ X M Q 5 h q h l e u 9 $ C y l ",
"y 7 t r y r 6 5 4 3 : . o       . X + 6 p p 0 p 0 @ 4 r 0 @ 2 4 0 4 ; < : = @ J     & s 2 e 7 : q 0 y u s s r 5 6 u k 6 q 5 5 $ Z r >       s V y q 9 r r u r s 9 c 5 g 6 7 q 9 3 s e e k q s g s e 8 k k s r y 3 7 , 9 e k r ,   I ( 0 r r e w r q 5 $ C r s b "
};
