/* XPM */
static char *wall[] = {
/* columns rows colors chars-per-pixel */
"128 128 136 2 ",
"   c #0D0D0D",
".  c #0F100E",
"X  c #10100F",
"o  c #0E0F10",
"O  c #141412",
"+  c #171816",
"@  c #181816",
"#  c #161618",
"$  c #171818",
"%  c #1C1C1B",
"&  c #1F201E",
"*  c #21211E",
"=  c #1E1E21",
"-  c #1F2021",
";  c #242422",
":  c #272827",
">  c #292926",
",  c #25262A",
"<  c #272829",
"1  c #2C2C2A",
"2  c #2F302E",
"3  c #32322D",
"4  c #2D2E31",
"5  c #2F3033",
"6  c #2E3039",
"7  c #343432",
"8  c #373834",
"9  c #3A3A35",
"0  c #363639",
"q  c #37383A",
"w  c #3C3C3A",
"e  c #3F403C",
"r  c #43433C",
"t  c #48483F",
"y  c #3D3D41",
"u  c #3D3F49",
"i  c #3F4042",
"p  c #3E404A",
"a  c #444443",
"s  c #474841",
"d  c #4B4B44",
"f  c #454649",
"g  c #474849",
"h  c #4C4C4B",
"j  c #4F504F",
"k  c #505046",
"l  c #53534B",
"z  c #59594E",
"x  c #454650",
"c  c #474950",
"v  c #4D4E51",
"b  c #4F5052",
"n  c #4E505A",
"m  c #535354",
"M  c #575857",
"N  c #5C5C52",
"B  c #555659",
"V  c #57585B",
"C  c #5B5B5C",
"Z  c #5F605F",
"A  c #626255",
"S  c #64645A",
"D  c #6A6A5D",
"F  c #5E5E61",
"G  c #5F6062",
"H  c #636364",
"J  c #676867",
"K  c #6C6C63",
"L  c #656669",
"P  c #67686A",
"I  c #6B6B6C",
"U  c #727264",
"Y  c #73736B",
"T  c #77786E",
"R  c #79796C",
"E  c #6E6E70",
"W  c #6F7071",
"Q  c #727374",
"!  c #7C7C73",
"~  c #767679",
"^  c #777879",
"/  c #7A7B7C",
"(  c #818176",
")  c #84847B",
"_  c #8A8A7E",
"`  c #7E7E81",
"'  c #7F8082",
"]  c #838384",
"[  c #8C8C83",
"{  c #868689",
"}  c #87888A",
"|  c #8A8B8C",
" . c #919186",
".. c #93938B",
"X. c #99998D",
"o. c #8E8E91",
"O. c #8F9092",
"+. c #929395",
"@. c #9B9B93",
"#. c #969699",
"$. c #979899",
"%. c #9A9A9C",
"&. c #A2A297",
"*. c #A3A39C",
"=. c #A9A99C",
"-. c #9E9EA1",
";. c #9FA0A2",
":. c #A2A2A4",
">. c #ABABA2",
",. c #A6A6A9",
"<. c #A7A8AA",
"1. c #AAAAAC",
"2. c #B0B0A7",
"3. c #B3B3AB",
"4. c #B8B8AA",
"5. c #AEAEB1",
"6. c #AFB0B3",
"7. c #B2B3B5",
"8. c #BCBCB4",
"9. c #B6B7B9",
"0. c #BABABC",
"q. c #C4C4BB",
"w. c #BDBEC1",
"e. c #BFC0C3",
"r. c #C2C2C4",
"t. c #CECEC5",
"y. c #C6C7C9",
"u. c #CACACC",
"i. c #DCDCCE",
"p. c #CECED1",
"a. c #CFD0D2",
"s. c #D2D3D4",
"d. c #DCDCD6",
"f. c #D5D6D8",
"g. c #DCDCDD",
"h. c #E1E1DA",
/* pixels */
"> @ ; a ] ^ #.+.Q y @   O       4 H B 4 9 r [ l z z k k r > O O 4 m | | E ] / y ; 7 k l N A D U U U S A l d k d a 9 1 * % * v B 1 3 t l l f t k d h k t d r 3 @   X # 7 m Q m w 1 9 r 1 # O 7 ~ m 1 * ; % % w C o.{ | -.I 1 # * 3 r 9 3 ; * * t U / ` v Q h 1 > ",
"9 > * * 7 0 F +.| E f @ X     X a a f 1 3 k S l z z z t 9 O X % g m { H a m ] K 1 ; 9 z S D U U U U N h h l l l h d r 1 O @ 3 F 3 3 d l k k t t t a t r 9 1 X   X % 0 C H h 7 3 9 t X.9 # X 1 E d ; 3 7 ; O % a ` *.-.| | E 3 % * 9 t t 7 > * % 4 m L ] M 1 3 e ",
"d r 8 ; % $ u ` o.H W h ; O O 4 y 0 3 1 r  .t k l l l 9 @ X O 7 I o.K 9 4 > M { l ; 3 k S D U R D D z k h l l l l k t 9 O O * H 3 3 t t t t r r r 9 9 3 * X X O % w H B y 1 7 r m 2.t 9 # X * H f * 1 M 3 * # * f / o.-.| -.I , @ * 7 d t r 3 @ O 1 H E w 1 9 Y ",
"d k d 9 ; % ; g / o.$.o.L w 7 C / m 1 1 r k d k l k r * X O ; l / E w 7 3 % 1 I j 3 > 9 A D U D l l h l v l l l l k t 9 @   * H 3 > 9 9 9 7 7 3 1 ; * X   X O ; y H l 9 3 9 t Y X.t t 9 *   # m a * ; 3 1 ; * O @ 4 ~ -.,.:.%.I 3 % * 7 r t 9 %   % B H 9 9 l K ",
"r g k l r 1 % % y W o.$.| ` W ] ` y 1 7 ) r t t t r > X O % f L U t 7 9 r @ @ 9 C y ; > t S D l h l h k k l l l l h d r @   * m 7 ; 1 > % @ X X           O 1 l C f 3 3 9 t ..! w r r 7 * X # a w * * 1 > 1 1 % @ # f ] %.-.-.+.H 1 % * 3 r 9 @   * C C 3 w z a ",
"k k d d d r 3 @ @ 7 G | +.$.#.%.I 1 > 8 C e r r r 3 X X @ 9 Z I t 1 9 k A > O * m L 9 ; 3 l l l k h k l l h l z l k t 9 *   % v 0 * X X   X     X X X # * 9 C H h 1 1 3 r [ A t 9 t 9 1 %   X 9 v ; @ ; > 3 9 3 * O % a ` +.~ -.%.I 1 O % 3 3 O X * C v 3 r k d ",
"z h d d d k s 1 @ @ > B { %.%.#.a = 1 8 8 9 r r 3 X X # 1 m E m 3 9 k h.k 9 * @ 1 M H 4 > 7 k t k a d h l l z N l k k 9 ;   O y f * O @ @ @ * X ; 4 7 a m H E F 1 > 3 d ..t t t 9 9 7 > @     9 C ; O X O * 3 7 3 * # % a I ] +.%.#.H 3 % % ; X X ; 0 y 7 t S l ",
"l l d d d d d r ; @ # @ k | r.{ 0 * % % > 1 1 7 @ X X > a E M 8 9 k _ D k t > O % y I d ; * 9 r t a l h l m z z k h t r ;   O y C a w f f v 0 m % C F H E ~ / H > # > 9 9 e 9 9 9 3 ; @ X     3 F a % O   X @ ; 3 1 * # # a ` -.%.:.+.L 3 O %   O > C 7 3 d N h ",
"k l d r r t r 9 > * X X ; F %.{ y ; O X X @ ; %   X = a L C 9 1 r z _ z k t r * O * v H 7 % ; 9 r a d k l l l h d t t 9 *   O 9 L ~ E H h i w f y 9 9 w C ` { Q m % # * > > ; * # X       X O 9 I Q v 3 # X X X # ; > % @ * a ] %.:.:.+.L > # X # w M 7 3 t S a ",
"e d d 9 9 9 3 * @     O < C { 1.I H 9 % O O     X % < C 0 y > 3 r ( k z l k r 1 @ O 4 F h > ; 3 r r r f d k v t k t r 3 X X O y m f w w 7 1 ; > > , * % 3 I { #.{ h * # O O           X X # 1 C ` #.+.Q C = # O X X X * % # * f ] :.:.:.#.L 1 # * v H 1 3 d k e ",
"8 1 1 > * O X X     O ; v F C ~ / o.] H w * O X @ 7 , H 9 % > 8 t r r t t t r 9 ; O @ 9 Z a * > 9 r r r t d t t k r 9 ; X X * v 3 ; > 3 3 1 3 7 7 7 3 @ # 9 ~ +.%.` w %   X O O # * , * y m H / E E E { ` L f 4 % O X X @ @ # * d ] :.,.:.+.I 4 7 L H 3 3 t 9 9 ",
"* O         X   X * 1 h ^ I r 1 7 l E ' ` m 0 1 9 H ` F 1 % * % % * > 1 3 3 3 3 > @ O ; m C 1 * 3 9 9 w r r 9 r r r 7 O   O 7 0 ; 1 9 r f d a t t a 9 > O @ f ] +.-.~ f 7 9 y h m B H L Q / { ` j 1 4 C / ~ #.L B 9 * # X X X O = d } :.+.+.E F L { C 3 7 9 1 ; ",
"        O $ ; < 2 a f / ` C ; 3 1 > 1 a C E ~ K E ` / m 1 @ O O X X X X X O O # O @ X @ 7 L m > * > 3 3 9 9 7 7 7 3 * X   O 7 1 1 w N Y F z t a t t r 7 @ O * m | %.o.{ ] ` ] ] / ` E ' ] +.o.Q 7 * @ ; 9 4 m C x ~ H a ; # X X O = j | :.` ] ` -.-.m > 1 * O   ",
"X @ - - 0 f v V u y I { | H 1 3 r 7 > ; * 7 f I ` L ` C C f w ; * % % # O O O O X X O X * M I y % @ X O # # @ # @ O     # 7 9 1 9 K C w k d k l m d t 9 1 @ X ; H | %.:.#.-.+.#.o.o.+.` ] #.:.Q ; > 1 @ % * 1 a L ] o./ H f 1 % X O ; m o.,.+.:.1.-.h * O O     ",
"r h h w C v h q 2 0 Q o.+./ q > t z r 3 > % % 0 E P ' P ] +.o.C x C m h 9 * > ; * % % @ > v / H 3 # X           X     O ; a 1 3 r [ d r r d j z z k r w 3 @ X X 9 ` #.-.-.:.#.{ ~ ` ` E E ] :.L = 4 d 4 > ; = ; 3 v H / o.] E ; > % * 1 F %.:.F 7.#.m @ @ % ; 3 ",
"P H m i 9 2 > * # ; I | o.` 0 > r N l d e ; O = C E #.%.,.1.,.:.] ] B ] / E I H F C m l m I { ` m 7 1 * % # @ O O O @ * w 9 ; 4 t A r r r a t l d k t 9 3 ; X X 1 ~ +.E { ] H a x a 9 1 4 m -.I 1 1 r r r 9 7 > ; ; % w C ` | ] Q C a 4 y E ~ { u.,.~ h m H E g ",
"a 7 1 1 > > 1 > O @ F | %.o.m ; r N N k t > X % z o.| o.~ -.-.F %.] ] | L { ] ] ` ] ] | ` o.-.+.E Q I C m a f f y h f f m 4 * > 9 r r r 9 r t k t t a 7 3 ;   O 3 ~ +.E E w 9 1 1 1 > % O w | Q 4 > a d d d t a 7 3 ; * * f H / +.%.{ Q B F +.:.5.%.o.I +.:.~ a ",
"> > 1 3 9 r r 3 O O y H F B I 3 7 k A z t > X @ b ..I l h m Z I E f / / ` C { | o.o.%.o.-.:.%.E f 7 3 1 ; 4 1 1 3 3 3 w m # % * > 7 9 3 7 w r r r t r 9 1 %   X 7 / | / f 4 9 9 9 7 3 O X w o.K 1 3 w d j l l l k a w 1 ; * 1 r Z { -.%.B u +.o.Q m E :.p.' h 4 ",
"3 r t K N S t 3 #   = c o.o.] 0 1 t N z t > X @ m ` v 7 7 1 3 7 7 9 9 9 y f h m H H ` +.%.#.~ y 3 ; 1 1 1 1 1 > 1 ; # @ 9 f % X X # O @ % > 1 1 3 7 7 3 > @   X w Q F / 7 1 w z D r 1   O y { C 3 7 d l N z z z l k d d 9 1 > * > y Z ` o.,.| m w 1 3 K -.{ r > ",
"% 3 t r r t r r * X = V | L o.h 1 r z z t * X @ v Q r 3 9 r w 9 7 7 3 1 1 > > > > 1 a E :.| 7 3 7 r r a t t t r 9 7 * X * f ; # X X       X X X # @ * * @ O   O h ` +.Q 7 3 w m 7 7 >   X a ] m 3 w k l N z j N z l k k t t 9 1 * % > 0 / ] l r t 3 % 4 E Q Z 1 ",
"> * 3 s t t t r > X O h Z ] ~ C > 7 k k r * X @ m I 8 > 9  .d d t k t r 9 9 3 ; * O < I #.m 7 9 a ..r d d d l t t 9 ; X O 7 m x 7 > * @ O O X X X           X = C { | H 4 3 r r 9 9 >   X 0 / j 1 9 d m A l l z z l k d t d t 9 ; X O 0 ~ B w d A t * % 7 E | M ",
"d * ; 9 k t r w 1 X O 7 E o.Q F * 3 r d 9 % X % m C 1 * 3 9 r r r t t t r 9 9 * X O 3 ` I 7 7 r *.a d d z z z l k r 3 # X ; C / ` B m m a 0 > ; # @ O X X X X > I ` F d 1 3 a w 9 7 *   O 9 I f 1 9 l k l l j z m l d t t t w 3 O   O d Z w w z 8.l 9 * % w / ] ",
"~ w * ; r k k w 3 @ X ; L ] ] L 9 * 8 r 3 X   % B m * O * > 7 9 r r r r 9 7 *   X = C Q a 1 9 l H d k N N N N z k r 3 @ X * m I H C I E E m v L m h y 7 1 > > m ~ / ~ a > 3 7 9 9 7 =   X 1 v 0 3 r k a a d k l l k h t r 9 3 %   X 1 m y 3 r ..D t k 7 * % w ~ ",
"I I 7 * > t k d 9 % o @ m { #.| k ; > 1 %     % v v > O X X @ * > 3 3 7 3 *     O w E l 4 3 r / a l j N N A N z k t 3 X   * m C 0 > 1 4 w f h m C y F L E C L Q { +.] 7 ; 1 9 9 7 3 %   X a m 7 1 w d 9 w r a d t r r 9 3 * X   X # 9 x 3 3 a X.t t d t 1 % % a ",
"h / Z 1 % > r k r > X O r ) o./ Z ; * O     O 7 Z / C 7 % X X X X O @ O O     X > h m 4 3 r ..l l k z z N A N l t 9 >   X * C H 0 @ ; ; ; ; ; > > , 3 f k N L Q ] -.| d * # * 1 3 1 @   O a v , 1 9 9 9 9 9 r r r 7 > % O     X % 7 B 7 1 9 ! a t r t t r > % % ",
"; M E m > @ > 9 9 1 O X 3 E / #.~ > #     # 7 C I / | / C y ; # X           X = f f 7 3 w m K d l l N A S N l d 9 > X   O 4 E / H 1 @ * w > ; > > ; ; > 1 * 3 7 f E { E 3 @ O @ % %     O a f , ; 7 9 9 9 9 7 3 > #         O ; y C B 1 ; 9 a r t a t h d 3 % # ",
"O > m E a * % ; 3 3 O X ; L ~ #.~ 9 # # ; f H H f a C E o.] I f 4 * % @ % % ; a H % ; 3 a X.t k A S S S N N d r > X X X ; m / ] ] L 4 @ @ > t w w 9 w 7 3 3 1 > ; 3 C E m 0 @ X         # y B 0 * 3 3 7 3 1 * @       X @ , 9 m C E L 3 % 1 r t d t a r r 9 > # ",
"O O > C I 9 % % ; 1 % X @ v ~ %.#.H 7 y L ' C 9 % * % 1 B ] ..' v L C C C h F E C , ; 9 %.d d l D N N l l t 7 * X X X ; v I ~ ` / %.E 7 @ # ; 9 r r r k k k t 9 > @ * d ~ / h = O O X @ > x 6 7 * > 1 > % X     X O % 1 7 d y 0 3 m / l * * 7 a d a d d w w 7 * ",
"% O # 3 H E 9 @ % * % X O w / ..%.| ~ ] ] M 7 > > % O O 4 E o.] ` o.-./ E E / ` m ; ; 0 d d z A A z N l t 7 @     O , j I ~ 5.{ -.*.:./ 0 @ # > w r t d l l l k 7 * @ % r Q / m a r w f C E F w @ # # X X   X @ * 7 a f r 3 * * % 4 I I ; * 1 r d t d h a w 9 3 ",
"1 % X # 0 L H 1 # X X   X 4 Q { -.w.-.` v 7 1 3 7 ; o   > E #.-.%.+.F h 7 7 v ` C > ; w k z z z z l k t 9 @   X # 1 v L E ] { E / #.1.%./ w % @ 1 9 d k l z z t t 1 O X > C o./ H m m m h h ; i 3 @ O X @ @ 1 w f f w 4 > 1 1 > # % h f a * = 9 a k h d r w 9 3 ",
"1 > # X # a I C < # X   O 1 E / 6.#.E a 3 9 e S l %   o 7 ` #.%.,.~ L 4 ; # > E / 3 ; 9 t l z z z l t 9 @ X   @ 7 h C Q / Q / C f E -.,.:./ 0 % % 1 r l N z d t 7 %   @ 3 f ` C 3 1 1 1 1 > > m H a 1 , w d m d 9 * 1 1 3 w r 7 O O 1 B E * % 1 r k d w 9 9 7 3 ",
"> > % O X = w I C 9 ; = , w E y.} C w 7 w k 8.C 3 @ o O a 6 ' 1.1.{ j ; ; X @ m o.a ; 3 k l N z z t 3 X X X @ 9 C ` H M H o.+.v 3 4 C I ,.%.H 3 % % 3 t k d r 9 *   X % 4 Q y 3 3 3 4 3 7 > @ * w C I v C j 0 4 3 7 w t t ! A 9 * O # f E v > > t h a w 0 9 7 4 ",
"; = O X X * m B x E K h B C I | h 3 7 r l [ t 9 3 X   * F { #.,.7.{ 7 ; 1 O O 9 | C 1 1 t l l l r 1 O X X % 9 F ~ F w 4 a | %.l 1 * > v o.%.%.E 3 % % 3 r e 9 >     O % B F 9 4 9 t r z z r > @ @ 7 H 7 0 3 3 7 r k S ] K d t r 3 @ X ; L L 9 ; 9 r w w 9 7 3 > ",
"= X     # 9 I / F h a h m H E ~ a 1 9 S [ a r 9 ;   X 4 E / #.:.-.I = > I X   ; Q Q 4 ; 9 d k 9 ;   X O > d f F m 3 * % 1 ] %.C 1 7 % > B +.%.` m 7 # * 1 9 > O   X 1 f B w 3 9 t _ z t k z t > # % m d 1 3 9 l R X.U l d l k t w * O @ f F h ; ; 9 9 7 7 4 4 ; ",
"      O 7 F I v 7 1 ; ; ; 1 a m j > 1 w d r t 3 #   O a ~ ] %.,.%.a , 4 C *   # B ~ 9 * 3 9 9 *   O O 1 v I H 9 4 * * X ; ~ :.H 1 9 > @ > m o.o.E I 3 % % * @ X X ; h H a 4 9 d =.z t k z A k 3 X @ r F 3 7 k @.N N N N l l N d t 3 O X > i h 1 % ; > 3 1 1 ; % ",
"    O 7 M H f 4 4 7 9 1 ; # = m I * * 7 a r r 3 X   % v / { #.5.o.w > 3 Y *     7 ~ f * > > @   O # 7 m ] 0 h 4 > > ; X % I -.C 1 7 S * # * m ` o.o.I 3 % O X X * h H v 4 3 r *.z k t z A A z 9 O O 0 B 1 9 l A N z N N A A A N k w * X # h Q a % O O # @ @ @   ",
"  # w y m w ; 3 w a t w 7 @ O 9 E 9 * > 9 r 9 >   X > F Q ` %.:.H 4 1 w l > X   ; K C * % O   X % w C ` H r 4 > 3 w * O @ C -.L 1 3 r 7 * @ ; k { #.| x * O O % f Q C 3 4 9 K S k l k l A D N r O O 7 m 3 7 N A A S N S A A S N k w > X X 3 E J 1 #             ",
"= y I m 0 < 3 w S R t k r ; X * f m ; ; 7 9 7 @   X a I ` | -.] h 1 3 m 7 1 @   # h H 4 @ X O > x L o.f r 3 3 7 d l *   O j o.Y 3 1 9 w 3 % @ ; m ] +.o.E 7 4 a Q H w 4 7 h ! l z l k N D A N 9 X O 1 F 7 9 N S S S D D A A A N l r 3 @   @ m Q B 4 X # @ X   O ",
"h Q B 7 > 4 w 3.I k k l d 7 # X 4 H 3 * > 3 >     % m ~ ] +.-.I w > 3 H 3 1 *   X 4 F f @ % 3 M 4 / H > 3 7 r A K 7 ;   O a ~ E 3 ; 3 9 7 1 % O * h ` %.` v E ` / h 9 9 d X.l z l l h S D A t 3 @   ; m 7 7 z D D S S S S A N z d 9 1 X X @ 7 Q #.E C C v a 7 9 ",
"E C 7 ; 1 9 ) S l l z z k t * X % l j ; % > *   X 1 F B F %.,.E 4 1 7 w 1 > * X   # I F w 0 I [ H m 9 4 9 r 2.K t 9 >   O 7 L ~ 7 @ @ @ * * ; # # % r / #.+.%.o.C 9 w h >.k a h d k k z A N z r @ X * N 7 3 l S D S S S A N z t r 7 %   X % f { B E ~ / ~ ` ~ Q ",
"C f , > 9 I N d k h z z l t 3 O O % m 3 @ @ X   # i E F V L -.m ; 1 3 4 1 ; * X   X y ~ I m +.] C 3 3 9 t  .N d r 7 *   X 4 i I t * X X X o X @ # O % , ~ %.:.E t w d ..H t r a t t h N A N z r @ X % l 9 3 k A D D S S N z l t 9 >     X y y i w 4 3 9 a m L ` ",
"Q h % * 9 r t k l N N z l d 9 % O @ y f * O   X ; F V | { 1.o.r * * % % * * * #   O f / ~ 1.] C 3 > 9 t 8.h t r 9 1 O   O 7 I v Q B 9 > @ O   o X X O % a | | w w t l  .d t r k d t l d l N k t % X @ j w 1 r N N N A N l l d r 3 O     1 B 0 = * * % % # = 7 Q ",
"o.v , % 1 r t k z N z z k t 9 > X O 4 H 7 * = , f F V +.%.%.| 0 % X         X X   X 5 Q :./ v 1 > 9 d  .t a t r 7 @   X % v C / o.{ ] E g 7 ; # X X X O 4 ~ / w 9 k ..d t r r d d d k l z l t 9 @ O @ m r > 9 l k l z z k k t 9 %     = v F 3 * * ; ; * # X % B ",
"] / 3 % 1 9 t l l l k l k t 9 1 O X * f C C C H I ] { o.#.y.-.Q f 4 * # X         X 4 E R f 1 ; 7 U z r t r 9 7 % X X # w E Q ~ ] o.+.%.o.Q L m w ; * * 7 ` E 9 9 d M r w w w a 9 r t t t 9 > * O X @ f w > > 7 r t k k t t r 1 O   # w L m , ; ; f > * %   X 7 ",
"Q { a = > 7 r t t k t t r 9 3 * X   % m Q H C m v m m B L / o.#.%.| I m w = * # O # 0 Q v ; * 1 > ; > 1 3 1 1 # X X O 7 C I v 0 w m I ` } | ] ` ~ Q F m H o.H 7 9 t r 9 9 9 7 7 4 3 1 ; % O X X X X % m m ; # # % 1 9 r r 9 3 @   X 1 B F 9 ; = * % % # #     % ",
"L o.m * * 3 9 9 t 9 9 3 3 ; * O X X , C h 7 3 1 1 > ; * 1 4 w a B K E Q / E H m f y H Q y * O X X O X X X X   X X O 7 H H h > ; ; ; > 9 g H Q ] / | { +.o...B 1 9 d 9 3 1 1 1 ; @ X O X X X X # @ 1 r C E f ; O X X @ ; 1 > @   X * h L F 7 # X X       X     = ",
"m | H , % * * % % @ O X X   X   X # 7 f 3 1 1 3 9 3 3 1 > > ; , ; , 4 7 w f l v I ~ ] ` F y 3 ; @ % # # O O X O @ ; v I 4 ; ; 7 9 3 > ; ; 1 7 g C Q / +.,.C m > 3 9 > % O     X   X X # % * 1 9 m H I I ` ~ C r > @ X X X     X % y L Q I a = = = # O         # ",
"f | / 3 O X           X X O O O % 4 h r > 1 w d f t r a w w 9 3 4 1 ; * * * * @ 4 h ~ -.F / E I I C v w 1 1 ; ; 9 H H v 3 ; 7 D l h t w 1 > > > 1 4 a C ` | m > * O       O X X % = 1 7 7 v C H I Q Q +.] K E E H t > O X X O % w Z Q ] { o.o.] I m w < % O O % ",
"F | | h % O O # # * * ; 1 7 w r v H F 7 ; 9 &.A d d d t r a r w r 9 7 4 > * @ # # ; Z ~ H L H Q Y L E C v I w i I Q H 3 > 4 S ( l l l z l r 9 9 3 * * ; 7 L K 1 O X O O % % 1 ; a m C a t l t r f C ] ` I r 7 9 m H F a 1 * 1 g I E ' o.#.-.:.:.-.%.~ ` H h i a ",
"| %.#.` B h h h v B C C H L L H E ] H 4 > r k f l k j k a r r w w 9 9 7 3 * @ X # 4 H ' x 9 3 3 3 9 9 w w f h B I E C 4 % > 9 k z z m l z l h t y 1 * # # w ~ g ; > 4 y m C C C F B h w 3 1 > * * v m ~ m 7 3 * > 1 f C L C H E I Q / #.:.,.1.v ,.:.:.#.o.~ | ' ",
"-.:.,.:.#.+.o.` m Q I v C m h f h I E 4 ; w d k m l z j d t a w w 9 9 3 ; O   X ; C p | C 4 7 7 1 3 3 1 1 > * , a B ~ w % @ 1 k m z z l k h d d t 9 1 #   * v ~ v H H Q I F v a 9 7 4 3 3 > 1 O % C ` ~ k 7 t 7 > ; * 1 w L { C a w f C Q | *.%.:.1.:.-.{ F #.%.",
":.,.0.#.] Q H m y w w , 4 > , ; ; r Q a ; 9 d k l z l d a a a r w 9 3 1 %   X @ v v { F ~ 7 ; r A h k r 9 7 ; @ * v ] Q 7 @ * 9 l k d t t h k h t e 3 %   % v ] / E m d 9 7 1 1 7 9 9 t r r * X % I +.E r 9 l D r 9 ; % % 9 f 0 4 > * ; 4 w l H ~ | +.m #.E o.| ",
",.u.#.h w 4 3 4 1 3 3 3 3 > > * O 1 Q f > 7 d k l z z d d a r r 9 7 1 #     # y E L H ~ o.l ; 1 k D l m l k 7 % O * m | L , % ; t d t t d g h t r w 4 O   # h Z r 7 1 4 3 9 t t l N A U k 9 O X % I +.E 9 t A R l k 9 * O * C 7 > > 3 1 3 > 1 4 4 7 f y B Q n E ",
"+.0.E 4 1 > 7 r r k k k d t r * X % C y > 1 a k z l m l d f r 9 7 1 %     X 7 H C ; 3 F L ~ 3 > w z z l z k t 3 @ O 1 H ] 1 = * 3 d k k k d d d r 9 > X   * B w > 3 9 9 t A S D _ D A k t 7 X O 3 ` { H 9 t U z k k r 1 O @ h m 3 ; r U t w 9 9 7 1 ; * , 4 q F ",
"E 1.m 1 7 a k l R A ( S z d 9 ; X # a y 1 1 r k k j l j k t r 7 1 ;     X ; C m 7 * # 7 / +.v ; 3 l z z z l t r > # # 4 I C a * ; w t d d a t d t 9 *     1 v = 1 9 d z S R A A A A N k t 3 X @ w / ] k 9 z _ z z z t 9 O O 3 I w % 4 k N k t l d 9 7 1 * % # < ",
"E o.i 1 r *.k l N z l k d r r 3 X X 1 H 7 1 r N N l d k d a 9 3 ;   X X ; h h 4 = * O % B #.I 1 1 t A A z l d t t ; X % 1 Q I 9 * ; 8 t y t t d t 7 O   O 7 a * > z ! t k l z A N N z k t > X @ h ~ ~ a 9 A _ S A N k 9 @ O * K l ; 1 t t k l l k r 7 7 1 # X * ",
"Q ~ 9 3 t C k m A A l l k d r 3 # X ; H w > 9 z A l k d t r 3 > O   X * w a 4 = ; 1 O O 3 / ] r ; 3 l A N l k t r 7 * O * h v I 7 % * 3 9 e w t r 4     O a 1 % 1 Y t t t k k N z z z t r @ X = B ` K 9 w N D S A N l 9 > X @ k C 1 > 7 r r d d d 7 7 3 1 O X > ",
"L F 7 3 a N k l m N A z l d t 9 @   * m f ; 3 l N l k t t 9 3 @   X % y C w 1 > 7 t % O # C -.C 1 > t N l z z t r 7 1 @ X ; h F F > % * 7 9 9 9 9 *     # w > ; 3 3 7 3 9 r t k t t t r 3 O O * m ` C 3 r N A N A N k r 3 X O 7 H 9 * % * ; 1 9 3 3 > ; % X O 7 ",
"~ d 4 9 k a t d l N N A l t r 9 %   O f a > > d l z l k t 7 @   X # y H d 4 3 t R t 1 X O 1 ~ / w > 3 l k z z t r 9 3 > # X ; y / d * O ; > 3 3 > O     1 a * % % # # O % * 1 1 3 3 3 > * X X = H ~ h 3 r z k k l t t r 1 O X > H v * O X     X O X @ @ O     r ",
"E w 7 t h t k z l z l l z d r 3 * X X 7 f % * 3 t t k d 9 > X X # 7 C d 3 3 d _ R k t * X % m o.M > > r t t r 9 7 1 * @ X X O 0 Q ~ a # @ O # O       X a y % O X           O   O O X X X O # 9 E E r 1 9 r 9 r 7 7 7 4 > O X % m H w ; % O # X           X % l ",
"H 4 7 d l k A A N m l k l t 9 3 @ X X 1 C ; % # @ 1 9 9 >   X @ 3 C h 3 7 d S R N N l 3 X O 3 E I 7 * 1 3 1 > % O   O   X O # 7 I { Q 4 # O     X X # 7 m m 9 4 = O % % # # # # O @ X O O # * m E E 7 ; * @ O O X X X O X   X % m ] E L C h w 5 ; % # O O # 1 H ",
"m 1 3 d S k N N N N d r t 9 > O X X O w f 4 ; O O O @ @ X   O 3 m m 9 3 r D 4.A A A N r * O * z ] l * % O O O         # % ; 9 C L F %.f a ; % # ; 3 y B E ~ ~ Q E H m C w g 9 , > 3 3 7 3 7 f H / E 7 * O O X X X X X X X X # 1 F j H I Q E Q I L m h a 4 w v ~ ",
"j * 1 t N l z z l k r 9 3 % X   X # 4 m F I B 9 ; O O O X O 1 m B 9 1 9 z  .S D S A k k 3 @ O 7 E I 7 # O X # # % % 4 , m H Q ] ` ` F m E C m m v a 0 7 Z ` 5.-.| ` m Q m ~ ~ 6 / H j I I E ~ ` B / C w 9 3 3 > 1 ; ; ; , 1 7 0 C 7 4 1 3 w a h v 0 v H L H I / ",
"H > ; 7 k l z l k r 3 ; X X X X O w C m a 0 m F B r ; # @ 1 a B w > 7 d d.A S D D D A z 9 % O @ m ] C 7 ; 3 4 w z A I I I m H C m i 9 w C %.Q f 1 = % O 7 E Q E F C m B m m C h Z Y C H E ' ' | | #.#.o.o.] ) ! E I H C F L E I 1 > ; > * ; ; > ; , 1 3 0 a m I ",
"I w * ; 7 t t r 7 * O X X X # 4 a d 9 3 > > * 3 d m i a 1 h F a 1 1 r S D N S D D D A z t 1 O @ w ~ / H F E y R Y I A l t 9 3 * ; = * % m +.M 3 > > % X @ m L m 9 1 > > ; > 3 1 3 7 * 1 7 r k L +.:.1.-.:.%.+.| ] ] / C E ~ { H 3 > 7 7 3 3 9 3 1 > ; * * % = 7 ",
"y H 3 % * > * # X X   X # > a C f ; > 3 7 3 > > * 4 w F C F I y * * > 9 t l N S D D A z t 7 X X > I :.H ] a H N d 9 7 3 3 3 > > ; * X = H / y 1 1 7 > O O 3 C m 3 1 7 3 7 9 9 9 3 7 3 > > * % r H ,.+.] ` Q E K K H H H I ` -.H 4 > 9 K 9 w a a r w 9 1 1 * X # ",
"> C m ; @ O   X X O # # w C L v 1 > 3 t l t r 3 ; % % y y ~ ` C 3 @ @ * 3 t l N A A N l t 3 X X > H ~ C v r 9 7 7 9 r t t t t r 1 X X 3 ~ H 3 3 9 ) 9 % O % C I r % 3 _ k N A N N z l t 3 * @ 9 ` ] C a 7 9 1 4 1 3 1 > 1 m +.L > > 9 w r r t f t t a w 7 > # X ",
"# 3 F r %   O # > 9 g C E Q E m > ; 9 _ D k l r 1 X # y L ,.Q / D 9 % @ @ > 9 l z z z t r % X @ 0 C m 3 7 w t k z A D D D A A r * X # h ` h 7 9 z t r 1 X # 7 Q B ; > t N A S S D A N l 9 @ X r ` +.m 9 9 9 7 3 3 1 > % O 9 L L 1 1 w r d a l d t f r w 7 1 * O ",
"  # a H a 1 4 i m H E Q / L ~ E 1 * > r k k k t * O % m { ~ C g E ` m > @ # * 3 t k k t 3 X X % v h w 7 t z D U [ X.D S A A k 9 O O * Z I 9 w l R k t r ; O % M E 3 > 9 A A D D D A A z 9   O r { | k 7 k z k t r 9 1 O X 7 / C > 1 9 d l d l k a t r 9 9 1 ; @ ",
"    * v ~ E m h w g m L { | +.o.C 1 * 3 t k k 9 O X % H / C 7 * 7 E ] H 0 % O O * 3 9 3 * X O 4 C h 7 r A i.U D U U D D A z k 3 O O 3 I m 7 t D R z N t 9 @ O 7 E m * 3 k D D D D D A z 9 X X r ~ ] d 3 d @.k t r 7 >   X 3 / H , 1 r k k l d k t t y 9 7 1 ; @ ",
"    * v m y , ; % = g ~ +.%.-.Q ` k ; ; r k t 3 O X 1 I Y 9 3 ; * 1 m I Q w @ O O @ * > X X # f H 9 7 l =.D D U U U U D A A t * O @ r H 9 9 l =.z z z l 9 * O % m H 3 * 9 A D D D D A z 3 O O 3 Q ~ t 7 t z d r 9 1 #   X 7 ~ H , ; 3 r w t t a r w 9 3 1 ; % O ",
"  X 4 F g * % * % O ; I %.%.:.{ 1.{ w ; 3 t t ;   # w E H 7 7 e > * ; 7 A D t 9 % O O X X X > C d 3 9 z ( D U U R U R D A z 9 X O * v m 3 r A ! A N k t 3 @ O @ a Y z 1 > k D D D D N l 3 O O 9 Q Q r 7 k l t 9 > O     O f ` L 1 # O * 3 7 w 9 9 9 7 1 * X     ",
"# 4 B E y % ; 9 * O O 9 ] %.-.,.5.-.I 1 ; 7 9 @ X # m I j 3 r K w 1 ; @ ; 7 v I x > O X X @ 7 v w 3 t X.N D K U U U U D N t > X O 4 m 9 3 t R N z z r 3 @ X X ; m / Q w * 3 t A A A A l 3 X X 0 E F w 3 t t 9 >     X @ 3 L { F i > # X @ ; 4 3 3 4 ; #         ",
"f H Q ~ v @ % > > % O @ m +.1.1.6.,.| 9 ; > 3 O X ; C E r 7 k ..t t 9 > * * 1 m I C 0 ; % 7 H v 4 3 t K k l A S D D D A z r @ X @ r m 3 9 k _ l t r 1 O X @ * t E ] ] F 1 @ > k A N z k 1 X O a E K 3 3 r 7 % X   @ ; t L / ~ ~ Q H 3 # X O * > * #           > ",
"M v v I I 1 # ; > * O X > Q :.,.1.5.-.I > % % O O a v L 3 9 l ! l k k t 7 ; % ; r C H C f H E w ; 3 H k k l l A N N N z t > X X ; m t 3 9 z D k t > X X O ; r K / | +.] t ; % 1 k z k t 1   O a E y 4 > 3 X X   @ 3 m E L m a v v { I 9 % O X #         #   4 m ",
"1 * * d ` a % * > > * X O w ] :.,.9.| #.H * @ X * C F v 4 t D U A z z z l 9 > = @ 1 h E ~ Q H 1 1 r [ t d d d d t l l t 9 % X @ 9 m 3 3 t  .t 9 * O X @ 1 f Y ~ ] o./ 5.| B 1 % > t k r > X O 7 E L 3 * O X O * a F Q B w > * * 0 F #.~ m ; X       O ; 0 m m f ",
"* @ X > I H * % = * = O X % m +.:.1.7.:.| d % # 4 B E 0 7 k @.A A N l N l t r 1 % @ * 9 I / j * 1 r l r a 9 w 9 w 9 9 1 % X O * v h ; 3 r r 3 @ X X @ 4 v , I ] | u.%.| | H m > * > 9 9 > X X f ~ K > @ O # 7 B Q I w 7 1 > ; @ # 4 C I { F 4 % # ; y C , h 4 ; ",
"* *   O v ~ 7 # X O # #   X 1 H { ,.,.1.,./ 9 % , 4 I w r N &.l z k l z k t 9 3 > @ O @ 0 ~ d ; > 7 1 3 3 > > % # X O O X X X 0 B w > 3 t 3 @ X X % 9 m m / ] o.:.{ E j h Q { z > @ * 3 @ X @ h I H 3 # * a E { F w 1 3 9 r r 3 * % ; x v { B m m L L < 0 1 ; * ",
"m ; O   4 ] C * X           O 4 { ,.5.1.5.,.E m Q Q H 9 r N D k k t t l d 9 3 * O   X O 1 L B @ @ * @ @ O       X   X   X O ; v C 3 ; 1 ; O X   = f L H E | o.-.o.N r 7 1 9 H ~ z * % * @   @ B / E f ; H ] { H 3 1 7 t A t.h r 3 ; @ * = m ~ ] | H a 1 > 3 3 3 ",
"3 > O   * F ` Z 0 = O         = C ~ ,.:.0.9.,.+.-.#.m 9 t S k t t t 9 r 1 % X     X # , d / Q 1 # X         X X O # * > 4 > m H H 3 @ @ O O # * a H Q ` { o.9.` B r 9 t 3 @ 3 H ( k * @ O O * C ] ` Q ] :.{ C 9 7 w l ..K k l k t 9 * X O 1 / ' C 7 1 ; 9 9 C ` ",
"7 > X X * C ' ] / H a = # O X O 0 | ,.` w.w.0.1.9.o.f 9 k R r 9 9 7 > @       O # > a H / ] { C , # O # @ % 4 7 w a m m v h h F I m * O O @ 7 C H B Q | %.%.` 4 3 0 l N r > % 3 F H 9 ; O # > f H { :.:.` k 4 9 d N &.S k l k l d r > X   = E Q 7 1 3 9 j ] r 9 ",
"7 ;   X , H :.' { | ~ Q m 7 ; = 4 C :.1.0.9.0.0.9./ 0 9 d 9 7 1 % X     X X % 1 f C Q ~ E H C H C v f f C C F i h f w 7 3 > > 7 w ~ h 4 ; a I ` { { ~ r.#.E a 1 7 z ( A k 9 * @ 1 C E d 4 7 m i x F %.~ r 7 7 t S >.N l l l z l k r >   X 4 ~ C 4 4 w X.l r w 9 ",
"7 *   X 3 F C C C f ' +.| L H B m v -.5.r.0.r.r.7.H 7 9 9 ; @   X X X @ * 7 f a C E C f 7 > * 1 L +.Q m h y 7 4 > , ; > 1 > * @ ; m / H H / F | +.#.w.~ L a 3 7 l t.U N l t 3 @ # 0 I ~ L H K f H v Q m 7 7 r X.( z N N N N N l t r *   X w ~ h > 3 M m r w r 9 ",
"3 #   X w C y 7 1 1 a H / | F +.] +.1.7.0.r.y.p.%.f 1 1 #       O @ 1 r h H H x y a 3 ; , * X # C ~ d 3 > ; > > > 3 3 w r r 3 % @ 1 C ] ` o.#.` +.g.%.L w 9 r t 3.R A z z 9 > X O * B K d 0 7 4 4 F { C 1 * > 9 r d l N z z l k t 7 @   O h L 9 1 7 H 9 w r r 9 ",
"1     % v I f ; ; % # = 0 Z / %.:.,.-.9.r.y.r.f.H 4 ; X X O % , w j C L L B a ; > 3 1 4 3 ;   # B L 4 1 3 3 9 0 a a H k N r w 1 @ # 1 C { o.+.+.9.+.F 9 9 a z | N A z z t 3 X X @ a < a 3 3 3 1 * 1 C ` m * @ > 9 t d z k d k d r 3     O m m 1 1 9 A w r r r 9 ",
"*     , Z C 1 ; 1 ; % O # = B -.1.5.r.r.F +.] %.] m ; * = 4 h I L H , a w 3 3 7 7 9 r d w *   O d H 1 1 9 ] l l m r r a t f r 9 ; # X , H #.%.0.~ j 3 9 t N [ a t t t k 9 @ X O 7 F f 7 r k l t > @ ; m ~ d * @ * 3 9 d d t r r 9 *     * C v 1 4 r m w r w w 9 ",
"@   X 7 L a % ; 3 > O   O = I y 6.0.9.| 4 9 r t [ | 7 B I I m ~ H 7 ; > 3 7 w a d ( ..l 7 ;   X w m > 1 w r w r r t d k t w w 7 3 * X X 3 ` p.] m 4 9 t E K d d t r t 9 % X O @ l k 3 r z >.U k r ; % > m E a * @ @ * 3 3 3 7 7 3 @   O 7 H a 1 7 l w w w r w 7 ",
"O   O 9 L f = * 3 %     = F +.L -.u.| f 7 3 1 * w ] | 1.| L C f 3 4 7 9 r k A ..A l d r 9 ;   X 0 m > 1 w w r a t a h d r w t w 9 3 # X % m | Z 3 4 t K I k k t t t r > X X % r d 3 r z q.R N l k t ; % ; j L r % @ X X X O @ @ @ O   X i Z 7 , 0 z r w r r 9 1 ",
"    % 4 f 3 * * *   X # x ] -.I p.| m 7 9 y 7 @ # h | | h a 3 3 7 9 d k R [ U z z l j r 9 >   X 7 h ; 1 w t a a a f a r r a t t w 9 ; X X 4 Q H > * 9 j d k d l k 9 > X X @ 0 f 3 7 l ( _ A A z N z r * @ > k U k ; # O X X   X   X   * B C 1 > w A w w w r 9 ; ",
"  X ; y m ; * ;     O 9 ~ ` Q p.%.C 9 9 r *.9 @ X 4 ] K 9 4 9 r l H X.Y A z z z z l k t 9 >   X 4 v > 1 t d d t t d t a a d d a r w 7 @   # m L 9 % 3 a d d t k t > X X @ 4 j 7 7 r S 4.A A D D D N k 7 @ O ; H Q H m a 7 ; * # O O O 4 F v > 1 r m 0 9 9 9 7 @ ",
"  O a H g = % #     1 L ] n ` %.E w 7 t 3.l 9 % X ; Q m 4 9 d R ! S z A S N A z l z l d y ;   X 4 v 1 1 a t d a a r t a d d t f r r 9 > X   1 L m ; ; 7 r r d t 7 X     ; h 9 3 9 z q.A D D D D A A t 9 @ X ; F -.Q L L E L F r a 0 w B E a ; > 7 7 9 r 9 7 1 O ",
"  % v H 7 % %   X > Z { | ~ { ~ r 9 a [ H r 9 * X * H m 3 9 N S t A S S A S A N N l h t 9 >   X > m 1 1 r t r d h r t a a f t a a w 9 3 %   O h H 1 % 1 9 r r 7 @   X X a w 3 7 k >.A S D D D D A N k 7 O X 4 I / B w 9 0 f d f B C C I Q f * * 1 3 9 9 7 3 ;   ",
"X < C F > @ X   * M ` | o.E y i 9 t S Y t r 9 * X X v m > 9 k l d z S S A S A A N k k t 9 > X   ; m 1 1 r t r t k r a a t a t t w w w 3 ; X X , y f * ; 3 3 1 @   X @ a f 1 3 t _ U A A D D D D A z t * X @ r E E r 1 1 ; > > > ; 1 7 w H C ; # @ 1 3 7 7 3 @   ",
"  0 L v * # X * v / o.| 1.` f 9 t N =.M d r 9 ; X % h m 1 7 d t d z A A z A N z z z k 9 9 1 X X ; h < > 9 9 r t k t t d a r r y r w 9 3 1 @   O w H 4 % * @ X   X @ 4 h 3 > 3 d N k A A D D D D A N r X O % m / B 4 3 9 9 9 3 3 > * % % 4 I f % @ @ % * > * X   ",
"% a L w %   @ f ` o.#.7./ m 7 y z h.N N t t 9 ;   # f l > 3 r r r l z l z z N z z k t t 9 > O   ; h 1 * * > 3 9 r t d t r 9 9 9 9 9 7 3 > @ X   > L h @ O X X O @ 9 C j 1 * * 1 r t z A A A A A N k 3 X X 3 H I a 3 9 >.N k t 9 7 1 % X # d I f % X X   X @     ",
", C L 7 @ # w ~ o.%.:./ m 9 r z 2.A z N z r 9 ;   O 7 v > > 9 7 9 9 t t t d t t t t r 9 7 ;     X l ; @ X X X O @ % ; > 3 7 3 7 3 3 4 > * @     % B H 7 @ # * 7 d F ~ I a ; @ O % 3 t l z z A A z t @ X % a E C 9 3 t / r r 9 7 3 1 O   O a F E d 3 @ O         ",
"7 Q H 3 % 0 ~ +.%.5.#.v 4 9 l ! Y N z N t 9 9 *   O 7 = ; * % @ % % * * * * % * * > * * % O   O * C 7 1 = O # X X     X X O @ * > = * #       X * v ~ H f h m B d f H ] / C 7 % O @ > 9 t k z z t 7 X X * m I r 3 9 N F r r 9 7 1 @   X * 4 ` { ~ L m 4 @ O O X ",
"H { L a y I %.:.:.:./ 9 7 r A ) z l l z r 7 1 O O X 7 v 4 # O X X X X   X   O   O   X X     O O w H E I Z m y 7 ; % O X X X               X O ; a H F L ~ / m 7 ; % 1 v ~ %.~ a > O O % 3 r r t t * X O 3 S H 7 1 r ..t t t 9 7 % X X % d ~ I C a 0 v C C w 7 a ",
"F H / / / o.-.1.y.] a 1 9 k *.k l l k r 4 * X X   @ r L h 1 ; * = * % % % % % # @ O @ O # # % 0 m d a h C I I E L m a 4 , = # O X     X O = 0 d f 0 1 7 E / a ; > * @ * r H ] | H 7 X O O * 1 9 3 X X @ f I m 1 3 t S d k k 9 *   X @ r E I F 4 ; % % 7 C Q Q F ",
"4 4 w m I E { s.#.m 3 4 r q.t k d d r 3 %     X @ 7 m ` E f H H H F C m j l v h h y r t a x m F h 4 > ; 1 3 9 9 d m m B Z y h y 4 > ; 1 9 y f 7 ; * % @ d ` w * * 9 * % % 1 l I #.E t > O O # * @ X O 1 C L a 1 r R k k t 7 >     # 7 H ~ C 7 ; > * O # f ` E f ",
"1 * * # 3 m | #.` w > > 9 w r t t 7 ; X     O = y v M H ] v o.| Q Z C f m m m l m C H H E / / E 9 > 9 7 4 3 1 * > 1 1 1 9 7 h v h H H m 0 4 ; ; ; ; # X = ~ p > @ @ > > * @ * 7 h Q | H 4 * X O   O # a E F 7 3 t ( t r 9 >     O 1 C ~ C 7 > 1 3 % X # h ~ H 4 ",
"3 3 > * = * r ~ ` f * O @ > 3 7 1 @     X O 1 7 w ; > w ~ o.+./ d 7 1 1 > > > ; ; 1 9 M Q { / L a > 7 ! d d t r 7 1 > * % * = ; y H o.F 4 ; ; 1 4 1 O X O H p m ; @ @ ; 3 * * * > d L ` C f % # X O ; C / l > 9 k A t 9 1     X ; m ` F 9 1 1 r k O   % m / m > ",
"7 I w 7 > % % 4 H E 9 * O @ * @ X       * 1 a w > % % * B { #.` 9 1 3 3 1 > ; * % X 4 H m #.{ +.M > 3 t k z N z k d t 3 1 ; % O ; B / h > > 3 N F > @   % B L ` H 3 @ O * 3 1 * * ; 3 7 I [ H 4 * 1 w H E w > 9 t 9 3 > X   X > v ~ F 9 > 4 9 8.1   X > Q / r > ",
"r [ r r 9 3 * # , v C a ; X X       @ 1 f a 4 ; > > O O f | %.o.h > 9 k r 9 1 O   % f / I %.-.:.~ 3 > t k l N z z l k r w 1 O   = H E y > 4 X.d 3 3 @   # v ' H o.E 9 % O % 1 9 1 ; = ; 7 v ~ ] H C ~ ] E 9 ; % ; * * X   X ; f Q H r 1 3 9 ) 7 *   O 0 Q H 4 1 ",
"d S d a a r 3 * @ # w F m , O X # > a a 9 > > 3 7 7 @ O > ~ #.-.L 1 > 9 k 3 #   X 4 L { +.5.9.p.o.w > 9 k l z N z z d 9 7 > X   > E E 7 1 9 I 9 7 3 % X O k ` o.| o./ u = # # > 9 9 3 % % > t ~ ] | | +.) f ; O X       X * x E H r 3 7 r 3.d 3 @ X O f Q , > 3 ",
"K d d d a d a 7 > @ @ 1 m C w 4 w B g 7 > 1 3 9 X.3 % X * A +.-.] 9 ; 7 9 *   X = F v o.:.,.} :.:.C > 7 d d k z k d t 9 7 *   X 9 E C > 1 a A 9 9 3 %   # ; V ] #.~ o.| B * @ # * 3 7 3 % @ * t / I %.#.%.] C 9 * # X X * d I L d 1 3 9 K k 7 > O   X , L f 1 w ",
"C k j k k k f r r 1 @ @ ; f L F C w 1 1 7 9 ! [ 9 7 > O O w ] #.+.j ; 1 1 X X % g ` { n %./ y I 7.H 1 > 1 3 9 r t 9 r 7 1 %   O w Q h > 3 t y 9 9 7 %   # = H | v ` L :.o.L 3 % O * > 7 > @ X 3 Q B L I / ] { ] I a 4 4 h E / m 1 > 9 H S 7 7 >     % v 4 0 1 t ",
"D z N k j k t d r w 1 @ O # h H 0 > 1 7 w X.l 9 9 7 > X X ; E  .o.L > % O X @ 9 E { o.6.` d 1 w | | w @ O X O # % * > ; * X   % v E y > 9 I r r r 3 @ X @ 9 E -.{ o.+.{ :.%.Q r * O @ * % X O 9 ] ` d 7 7 4 H / { ..E I / { C 4 ; 4 r D 9 7 1 *   X 3 H H 3 7 d ",
"S N N l l k d d r 9 7 * X X 7 m > ; 7 ! _ 9 9 3 1 * #   X % C ~ ` ] 7 % o O 4 H { ] 9.` m > = = I I F 4 * O O X X X X       X * H I 7 ; 9 Q t t r 3 @   % h / ~ ~ ] %.,.7.1.-.I v ; # O X X * C { C 7 w 3 ; > 7 d L E | :.E 0 ; 1 w H 3 7 3 > @   X w L v 1 9 l ",
"j N N l k j d d r w 3 *   X 7 a = = 1 3 1 1 * % O       X * B o.#.#.m * O ; C E E ] +.H 1 * # O v %.| I B a # ; @ @ O X     X 4 I C 1 4 w d h t r 9 O   % j ` C a h ] -.5.5.,.%.| C > # X # 4 ~ Q w 9 t t 7 1 ; % ; w Q o.F 1 * > j 3 1 > * O     % v L a 1 r ) ",
"l N A S l d f t r 7 3 %     7 h * * * * O X         O % > a E #.-.-.E 3 , v L / I -.~ 7 ; ; O X 7 o.-.o.L x y E d m a 7 1 ; , h I m 1 1 M r t a e 7 #   # v Q v 1 ; 7 I %.5.,.1.-.+.L 7 = 1 Z ] C 7 9 z A l t 7 ; % % w ] E 3 * % * % @         # > B H 7 1 9 z ",
"d d l N z d r w r 1 * X   O 7 v ; #       X X O # * 0 0 B v ` o.:.-.o.L H I +.-.y.| t > 1 7 X X 7 { +.B ` { o.L | E ~ C H v y ` / y > 4 S r t t t 9 O X % m E a 1 3 * 4 F #.1.-.1.%.-.C m 0 / Q y 9 k @.z l l l r ; X * H / w @ X   X   O O # % 1 f m B 1 1 w t ",
"t d l z l r w 9 4 %       * f m 1 O X X # ; 4 = m v E L ] o.+.-.1.%.o.-.-.%.1.p.#.F 4 3 1 ;   X w | r.L +.` Q C o.o.o.] F o.| | ` 9 > 9 k t t t t 7 O X * M I r > 9 > * > k / +.-.+.:.I L H ` C 7 t z _ S A N N k 3 X O a { C , @ O @ * > 3 w v H Q ~ v 4 * 1 w ",
"t k l t e e 1 ; O     X * y m v y 1 4 0 m I I Q / Q ] { o.#.:.1.7.1.6.#.5.u 5.1.~ 0 1 7 [ %   X y o.` v v I ~ [ ' o.L ` #.E #.#./ 3 1 y t t a t r > X X ; H I 9 > 9 t 1 * * r H +.1.#.:.:.0.{ g t z =.N A A N N k r # X # i F v 9 3 f F I E E ~ ~ m { ` h % * 3 ",
"3 t k e 9 1 %       O 1 g B m H / E ~ ` ` | R { B ] +.#.-.%.-.0.9.:.0.0.#.%.f.+.g 7 9 ! 3 #   O 0 | F 7 > 4 7 r p v g w L Q H { ' 9 > 9 r t r w 7 * X X , F I 9 1 9 K t 9 > % 3 H o.-.,.5.:.I a k U ( A A S A A l t * X X 0 L ' / ` ] ] { ~ H H C 7 E 5.~ 9 @ ; ",
"; 9 9 3 * X     X % 7 m v 9 4 7 H o.+.#.` I o.+.%.%.:.] -.1.0.e.7.5.1.0.1.f.,.C 9 w t ) 1 X   = B / d > 7 7 3 7 1 1 4 < < y g Z ` d > 3 9 9 7 ; % X   X 1 H Q w ; 7 t d t 9 > % , m | ,.0.] l t D 4.A A D D D A l r ;     0 I #.{ [ / E C f 7 1 1 ; a ` -.H 1 @ ",
"% > > @       O = a 5 h 3 * * # 3 E | +.#.:.-.,.5.,.o./ 7.1.-.o.~ C C ] 1.9.` r 9 t t.7 ;     ; L E 9 > 9 k t t r 9 9 3 > * * 9 +.B ; ; ; % O X     X # 7 I E w * * 3 9 t t 9 > * ; r / 1.I a k U _ D D D D D N k 9 ;   X 7 F L H d w 7 3 4 1 > > * * v | | j @ ",
"# # X   X O = 4 g g 7 1 ; ; * X # 7 ] :.:.:.5.5.w.:.,.-.| x w 7 9 3 > d %.5.L 3 7 t 9 3 %   o 1 I H 1 > r z k t d d t r 3 % X * L Q 1 % X O X X # % 1 w F F Q 4 ; O # * 7 r t 9 ; @ O f o.H t l R U U D U D A l r 3 @   O 7 B a 1 1 1 3 9 3 9 9 3 @ X ; C | / 4 ",
"1 # O O % 7 v x i = > > 3 3 1 O   X H %.,.r.9.1.+./ H d 9 3 1 9 w 3 # 1 ) Q H 1 3 9 3 * X X O d ~ C 1 > 3 9 r r r t t t 9 * O % L Q 7 % # # = 4 w m C L Q i ` / d 1 @ @ @ > 7 9 1 X X 7 I C w z R D D U D S l t 7 > O   # w C 4 ; 3 9 t k l d j 9 > O O 1 m %.C ",
"y > * 1 l H C 0 > > 1 9 M ) 1 * O X 7 ] g.-.~ H h w 3 3 9 w t d d 3 O # H m ~ 7 > > O   X X ; N Q C 1 # O @ ; > 7 9 e 9 7 *   O v E B a d w Z i F h f m f a m ~ | K 9 % O @ @ > > X @ 9 ~ C 9 l U S D D A z t 3 > X     = m m 1 % % > 9 7 9 9 9 7 7 ; O O ; H L ",
"] H B I E v 3 1 1 9 w #.l 9 3 > X   * H ] ] v w 1 3 7 w k _ Y Y r 3 O @ t Z ~ w * X O X O > a I :.L k 1 @ X X O * > 3 9 3 *   O 7 x H ] ] ` C h 0 w 1 1 1 > ; 9 C ` / m 1 # O O O   # w / k 9 k A A A A z r 3 %       % a 0 F i * # O @ > 3 7 9 9 7 3 * O @ 9 I ",
"] ] | C a 1 ; 1 7 ~ [ e 9 9 7 > O   # a | %.] B 7 * # O O * > 3 7 3 @ X 4 h | v * @ % = w B 4 H Z L | E v 1 # X X X % * > % O X 7 H | ~ H v w 7 7 7 9 9 9 7 ; * > a K ~ L w * O X O O a E t 7 t k z z t 3 > X X   O * a C L F I C 3 @ O @ % 3 7 9 9 9 > @ X ; S ",
"/ -.) h 1 ; 4 w [ l 9 e r w 7 > X   % C %.o.%.| { C 9 = O O O @ * ; @ X % m o.I a w h E f m w 9 1 > L ] | E h ; # X X X O X   # f I m w 7 9 3 w t d l l l k 9 1 * * 3 l I Q m 4 @ O * v ~ w 3 r t r 3 * @   X X @ 4 v B f y C | %.Q f * O O @ ; 1 7 9 3 @   O w ",
"/ o.{ v * @ % 1 3 9 r e 9 9 3 %   X ; E / F z I | ,.o.a 9 ; % X O O O X % j | / | ] ~ F y 7 3 1 1 > 1 y Z Q { I v * # X O   O * C l 3 1 7 r k A ! @.! U l k k t 7 > % ; 7 C ] K a 4 7 H E 7 * > ; O X     X O * y C v 1 * * 7 C ` %./ 0 1 X X X @ * > * O X O 9 ",
"| #.+./ a % O # ; 9 9 9 9 9 1 X   X a E C 9 > 3 e C H H E E h 4 * # X O @ f ] o.~ C r 9 7 9 t t r 3 3 > 1 9 v L ~ f y 7 * # * y F 7 4 9 d A C K S A z l z l l k r 7 > @ O > B ` ` I H ] ` 7 # O   O X X X * 7 m H H 3 * * % @ ; r L L ` F 0 # X X X # X X O > C ",
"H 4 :.:.` m * O O ; 3 3 9 3 =     * m B y > 7 1 > 1 1 y A I ` E B w 1 X ; M E C e 3 9 r k z ( z z z d 9 3 ; > 4 f C m ~ H f h F h 1 9 l *.d t l z z l l z N k r w 7 > X X % a ~ 3.` ~ I ` C 4 @ X = , 7 t z H E Q H 7 # % 9 > % * * f E ` { H 4 % X     X ; a B ",
"1 4 o.,.:.+.H 1 # X % > 1 ; O   O 7 H m 1 1 r t r 7 1 > > 3 t C C ~ x 0 a ~ B 9 9 r d l &.( N A A S S A k 1 > * ; > 9 B E ~ H H 9 3 t @.l d k h l l l z l z l t 9 * X X X 1 C E Q l 9 4 r F H f m C C w C I ~ ` ` v v * @ @ 3 3 ; % * 1 w ~ #.~ m , # O = h 0 , ",
"* , v | :.-.#.I 7 % X # * %     % h L 9 3 7 K z l z t 9 > ; * ; w Q Z H { ] H 3 1 d _ ( A N S D U U D K l t e 9 1 = * , 9 m I F 3 7 k A l d t k v l l l l k t 7 @     # > C Q C a 3 3 ; % 1 M o.E m w 3 1 w I ~ | o.L C 1 @ @ 3 r 3 ; * ; w C Q | v 4 9 f L a , "
};
